**kern	**dynam	**kern	**dynam	**kern	**dynam	**kern	**dynam	**mxhm
*part4	*part4	*part3	*part3	*part2	*part2	*part1	*part1	*part1
*staff4	*	*staff3	*	*staff2	*	*staff1	*	*
*I"Violoncello	*	*I"Viola	*	*I"Violin	*	*I"Violin	*	*
*I'Vc.	*	*I'Vla.	*	*I'Vln.	*	*I'Vln.	*	*
*clefF4	*	*clefC3	*	*clefG2	*	*clefG2	*	*
*k[f#c#g#]	*	*k[f#c#g#]	*	*k[f#c#g#]	*	*k[f#c#g#]	*	*
*M3/4	*	*M3/4	*	*M3/4	*	*M3/4	*	*
=1	=1	=1	=1	=1	=1	=1	=1	=1
!	!	!	!	!	!	!LO:TX:a:B:t=Allegro ma non tanto	!	!
*MM120	*	*MM120	*	*MM120	*	*MM120	*	*
!	!	!	!LO:DY:a	!	!LO:DY:a	!LO:TX:a:t=[quarter]=120	!	!
(4GG#	p	(4G#	p p	(4G#	p	(4G#	.	.A.I
4AA	.	4A	.	4A	.	4A	.	.
4C#)	.	4c#)	.	4c#)	.	4c#)	.	.
=2	=2	=2	=2	=2	=2	=2	=2	=2
(4C#	.	(4c#	.	(4c#	.	(4c#	.	.
4D	.	4d	.	4d	.	4d	.	IV
4F#)	.	4f#)	.	4f#)	.	4f#)	.	.
=3	=3	=3	=3	=3	=3	=3	=3	=3
(4AA#X	.	(4A#X	.	(4A#X	.	(4A#X	.	.
4BB	.	4B	.	4B	.	4B	.	V/V
4D#X)	.	4d#X)	.	4d#X)	.	4d#X)	.	.
=4	=4	=4	=4	=4	=4	=4	=4	=4
(4D#X	.	(4d#X	.	(4d#X	.	(4d#X	.	.
4E	.	4e	.	4e	.	4e	.	V
4G#)	.	4g#)	.	4g#)	.	4g#)	.	.
=5	=5	=5	=5	=5	=5	=5	=5	=5
2.r	.	2.r	.	(4G#	.	(2cc#	.	I
.	.	.	.	4A	.	.	.	.
.	.	.	.	4c#)	.	8bL	.	I6(2)
.	.	.	.	.	.	8anJ)	.	I6
=6	=6	=6	=6	=6	=6	=6	=6	=6
2.r	.	2.r	.	(4c#	.	(8g#L	.	III
.	.	.	.	.	.	8e#XJ)	.	.
.	.	.	.	4dn	.	4f#'	.	IV
.	.	.	.	4f#)	.	4r	.	.
=7	=7	=7	=7	=7	=7	=7	=7	=7
(4AA#X	p	(2dn	p	2.r	.	2.r	.	ii6
4BB	.	.	.	.	.	.	.	.
4Dn)	.	8c#L	.	.	.	.	.	.
.	.	8BJ)	.	.	.	.	.	.
=8	=8	=8	=8	=8	=8	=8	=8	=8
(4D#X	.	(8AnL	.	2.r	.	2.r	.	V
.	.	8F#J)	.	.	.	.	.	.
4E	.	4G#'	.	.	.	.	.	.
4G#)	.	4r	.	.	.	.	.	.
=9	=9	=9	=9	=9	=9	=9	=9	=9
!	!	!	!LO:DY:a	!	!	!	!	!
2.r	.	2.r	p	(4B#X	.	(2ee	p	iii
.	.	.	.	4c#	.	.	.	.
.	.	.	.	4e)	.	8ddL	.	iii6
.	.	.	.	.	.	8cc#J)	.	.
=10	=10	=10	=10	=10	=10	=10	=10	=10
2.r	.	2.r	.	(4e#X	.	(8bL	.	#viio/vi
.	.	.	.	.	.	8g#J)	.	.
.	.	.	.	4f#	.	4a'	.	vi
.	.	.	.	4a)	.	4r	.	.
=11	=11	=11	=11	=11	=11	=11	=11	=11
2.r	.	(4c#	pp	(4en	pp	(8cc#L	pp	#io65
.	.	.	.	.	.	8a#XJ)	.	.
.	.	4d#X	.	4f#	.	4b'	.	V65/V
.	.	4f#)	.	4a)	.	4r	.	.
=12	=12	=12	=12	=12	=12	=12	=12	=12
(4D#X	pp	(4F#	.	4B	.	(8anL	.	.
.	.	.	.	.	.	8f#J)	.	.
4E	.	4G#	.	4r	.	4g#'	.	V
4G#)	.	4B)	.	4r	.	4r	.	.
=13	=13	=13	=13	=13	=13	=13	=13	=13
(4DD#X	pp	(2G#	pp	(2g#	pp	2.r	.	V6
4EE	.	.	.	.	.	.	.	.
4GG#)	.	8F#L	.	8f#L	.	.	.	.
.	.	8EJ)	.	8eJ)	.	.	.	.
=14	=14	=14	=14	=14	=14	=14	=14	=14
(4GG#	.	4E	.	(8d#XL	.	2.r	.	I
.	.	.	.	8B#XJ)	.	.	.	.
4AAn	.	4r	.	4c#'	.	.	.	.
4C#)	.	4r	.	4r	.	.	.	.
=15	=15	=15	=15	=15	=15	=15	=15	=15
2.r	.	(4E#X	.	(2a	<	(2aa	<	V.ii
.	.	4F#	.	.	.	.	.	.
.	.	4A)	.	8g#L	[ >	8gg#L	[ >	ii6
.	.	.	.	8f#J)	]]	8ff#J)	]]	.
=16	=16	=16	=16	=16	=16	=16	=16	=16
2.r	.	(4A#X	.	(8eL	.	(8eeL	.	#viio/V
.	.	.	.	8c#J)	.	8cc#J)	.	.
.	.	4B	.	(4d#X	.	4dd#X'	.	V
.	.	4d#X)	.	4f#)	.	4r	.	.
=17	=17	=17	=17	=17	=17	=17	=17	=17
2.r	.	(4d#X	.	(4f#	.	(2gg#	<	I
.	.	4en	.	4g#	.	.	.	.
.	.	4g#)	.	4bn)	.	8ff#L	[ >	I6
.	.	.	.	.	.	8eeJ)	]]	.
=18	=18	=18	=18	=18	=18	=18	=18	=18
!	!	!LO:TX:b:i:t=cresc.	!	!LO:TX:b:i:t=cresc.	!	!LO:TX:b:i:t=cresc.	!	!
2.r	.	(4g#	.	(4e	.	(8dd#XL	.	V+(#7)/IV
.	.	.	.	.	.	8b#XJ)	.	.
.	.	4a	.	4A	.	4cc#'	.	IV
.	.	4e#X)	.	4g#)	.	(8ccc#L	.	V6/ii
.	.	.	.	.	.	8bbnJ)	.	.
=19	=19	=19	=19	=19	=19	=19	=19	=19
2.r	.	(4c#	.	(4e#X	.	(8bbL	.	V7/ii
.	.	.	.	.	.	8gg#J)	.	.
.	.	4f#	.	4a	.	4aa'	.	ii
.	.	4d#X)	.	4f#)	.	(8bbL	.	V6
.	.	.	.	.	.	8aaJ)	.	.
=20	=20	=20	=20	=20	=20	=20	=20	=20
4r	.	(4B	.	(4d#X	.	(8aaL	.	V7
.	.	.	.	.	.	8ff#J)	.	.
4r	.	4en	.	4g#	.	4gg#'	.	I
4E'	.	4B)	.	4g#)	.	(8aaL	.	.
.	.	.	.	.	.	8gg#J)	.	.
=21	=21	=21	=21	=21	=21	=21	=21	=21
4BB'	.	(8BL	.	(8g#L	.	(8gg#L	.	V6(+#4)
.	.	8g#J)	.	8bJ)	.	8ee#XJ)	.	.
4B'	.	4B'	.	4a'	.	4ff#'	.	V7
4BB'	f	4B'	f	4a'	f	(8gg#L	f	.
.	.	.	.	.	.	8ff#J)	.	.
=22	=22	=22	=22	=22	=22	=22	=22	=22
4BB'	.	(8AL	.	(8aL	.	(8ff#L	.	.
.	.	8BJ)	.	8f#J)	.	8dd#XJ)	.	.
4E'	.	4G#'	.	4e'	.	4een'	.	I\\
4r	.	4r	.	4r	.	4r	.	.
=23:|!	=23:|!	=23:|!	=23:|!	=23:|!	=23:|!	=23:|!	=23:|!	=23:|!
4BB'	.	(8AL	.	(8aL	.	(8ff#L	.	.
.	.	8BJ)	.	8f#J)	.	8dd#XJ)	.	.
4E'	.	4E'	.	4e'	.	4een'	.	V
(4GGn	p	(4Gn	p	4Gn	p	(4gn	p	.bIII.V
=24	=24	=24	=24	=24	=24	=24	=24	=24
4FF#	.	4F#	.	4r	.	4f#	.	.
4GGn	.	4Gn	.	(4Gn	.	4gn	.	.
4BB)	.	4B)	.	4B)	.	4b)	.	.
=25	=25	=25	=25	=25	=25	=25	=25	=25
(4BB	.	(4B	.	(4B	.	(4b	.	.
4Cn	.	4cn	.	4cn	.	4ccn	.	I
4E)	.	4e)	.	4e)	.	4ee)	.	.
=26!|:	=26!|:	=26!|:	=26!|:	=26!|:	=26!|:	=26!|:	=26!|:	=26!|:
2.r	.	(4F#	.	(4f#	.	(4ff#	.	.
.	.	4Gn	.	4gn	.	4ggn	.	V
.	.	4B)	.	4b)	.	4bb)	.	.
=27	=27	=27	=27	=27	=27	=27	=27	=27
(4BB	.	(4B	.	(4b	.	(4bb	.	.
4Cn	.	4cn	.	4ccn	.	4cccn	.	I
4cn)	.	4Gn)	.	4ee)	.	4eee)	.	.
=28||	=28||	=28||	=28||	=28||	=28||	=28||	=28||	=28||
*k[]	*	*k[]	*	*k[]	*	*k[]	*	*
(4F	.	(4A	.	(2ff	<	(2aa	<	V7(9)
4G	.	4B	.	.	.	.	.	.
4B)	.	4d)	.	8eeL	[ >	8ggL	[ >	viio
.	.	.	.	8ddJ)	]]	8ffJ)	]]	.
*clefC4	*	*	*	*	*	*	*	*
=29	=29	=29	=29	=29	=29	=29	=29	=29
(2e	<	(2g	<	(8ddL	.	(8ffL	.	I6(72)
.	.	.	.	8bJ)	.	8ddJ)	.	.
.	.	.	.	4cc'	.	4ee'	.	I6
8dL	[ >	8fL	[ >	4r	.	4r	.	I
8cJ)	]]	8eJ)	]]	.	.	.	.	.
=30	=30	=30	=30	=30	=30	=30	=30	=30
(8cL	.	(8fL	.	(2ff	<	(2aa	<	vii%7
8AJ)	.	8cJ)	.	.	.	.	.	.
4B'	.	4d'	.	.	.	.	.	.
4r	.	4r	.	8eeL	[ >	8ggL	[ >	.
.	.	.	.	8ddJ)	]]	8ffJ)	]]	viio
=31	=31	=31	=31	=31	=31	=31	=31	=31
(2e	<	(2g	<	(8ddL	.	(8ffL	.	I6(72)
.	.	.	.	8bJ)	.	8ddJ)	.	.
.	.	.	.	4cc'	.	4ee'	.	I6
8dL	[ >	8fL	[ >	4r	.	4r	.	I
8cJ)	]]	8eJ)	]]	.	.	.	.	.
=32	=32	=32	=32	=32	=32	=32	=32	=32
!LO:TX:b:i:t=cresc.	!	!LO:TX:b:i:t=cresc.	!	!	!	!	!	!
(2B-X	.	(2d	.	4r	.	4r	.	.bII.I
!	!	!	!	!LO:TX:b:i:t=cresc.	!	!LO:TX:b:i:t=cresc.	!	!
.	.	.	.	(4ee	.	(4gg	.	vii%43
8AL	.	8cL	.	8ffL	.	8aaL	.	V6
8GJ)	.	8B-XJ)	.	8ggJ)	.	8bb-XJ)	.	vi
*clefF4	*	*	*	*	*	*	*	*
=33	=33	=33	=33	=33	=33	=33	=33	=33
(2AA	f	(2A	f	(4ff	f	(4ccc	f	V6
.	.	.	.	4f	.	4ff	.	.
8GGL	.	8GL	.	4a)	.	4aa)	.	V
8FFJ)	.	8FJ)	.	.	.	.	.	.
=34	=34	=34	=34	=34	=34	=34	=34	=34
(8EE-XL	.	(8E-XL	.	(4a	.	(4aa	.	viio6
8CCJ)	.	8CJ)	.	.	.	.	.	.
4DD'	.	4D'	.	4b-X	.	4bb-X	.	I6
4r	.	4r	.	4dd)	.	4ddd)	.	.
=35	=35	=35	=35	=35	=35	=35	=35	=35
(4FF#X	.	(2B-X	.	(2b-X	.	2.r	.	vi
4GG	.	.	.	.	.	.	.	.
4BB-X)	.	8AL	.	8aL	.	.	.	.
.	.	8GJ)	.	8gJ)	.	.	.	.
=36	=36	=36	=36	=36	=36	=36	=36	=36
(4BBn	.	(8FL	.	(8fL	.	4r	.	.bVI.viio/V
.	.	8DJ)	.	8dJ)	.	.	.	.
4C)	.	4En'	.	4en'	.	4r	.	V
(8DL	p	(8FL	p	(8ggL	p	8r	.	V43/V
8EnJ)	.	8GJ)	.	8eeJ)	.	8r	.	V
=37	=37	=37	=37	=37	=37	=37	=37	=37
(4E	.	(4G	.	(2aa	.	(2ccc	p	I
4F	.	4A	.	.	.	.	.	.
4A)	.	4c)	.	8ggL	.	8bb-XL	.	I6(112)
.	.	.	.	8ffJ)	.	8aaJ)	.	I6
=38	=38	=38	=38	=38	=38	=38	=38	=38
!LO:TX:b:i:t=cresc.	!	!LO:TX:b:i:t=cresc.	!	!LO:TX:b:i:t=cresc.	!	!LO:TX:b:i:t=cresc.	!	!
(2B-X	.	(2d	.	(8eeL	.	(8ggL	.	IV(116)
.	.	.	.	8ccJ)	.	8eeJ)	.	.
.	.	.	.	4dd'	.	4ff'	.	IV
8GL	.	8B-XL	.	4r	.	4r	.	ii
8FJ)	.	8AJ)	.	.	.	.	.	.
=39	=39	=39	=39	=39	=39	=39	=39	=39
(2E	.	(2G	.	(8ffL	.	(8aaL	.	viio
.	.	.	.	8ddJ)	.	8ffJ)	.	.
.	.	.	.	4ee'	.	4gg'	.	.
8DL	.	8FL	.	4r	.	4r	.	.
8CJ)	.	8EJ)	.	.	.	.	.	.
=40	=40	=40	=40	=40	=40	=40	=40	=40
(4.F	f	(4.A	f	(8ggL	f	(8bb-XL	f	I(119)
.	.	.	.	8eeJ)	.	8ggJ)	.	.
.	.	.	.	4ff'	.	4aa'	.	I
8EL	.	8GL	.	.	.	.	.	.
8D	.	8F	.	4ff'	.	4aa'	.	vi
8CJ)	.	8EJ)	.	.	.	.	.	.
=41	=41	=41	=41	=41	=41	=41	=41	=41
(8BB-XL	.	(8DL	.	(4ff	.	(4aa	.	IVM7
8AA	.	8C	.	.	.	.	.	.
8GG	.	8D	.	4gg)	.	4bb-X)	.	ii7
8FFJ)	.	8FJ)	.	.	.	.	.	.
4C	.	(8GL	.	4ee'	.	4gg'	.	V
.	.	8cJ)	.	.	.	.	.	.
=42	=42	=42	=42	=42	=42	=42	=42	=42
2.r	.	(8F#XL	pp	4a'	pp	(8cccL	pp	V65/ii
.	.	8f#XJ)	.	.	.	8ddJ)	.	.
.	.	4g'	.	4d'	.	4bb-X'	.	ii
.	.	4e'	.	4c' 4g	.	(8bb-L	.	V7
.	.	.	.	.	.	8ccJ)	.	.
=43	=43	=43	=43	=43	=43	=43	=43	=43
2.r	.	4fn'	.	4cc'	.	4aa'	.	I
.	.	4d'	.	4f'	.	(8aaL	.	V65/bVII
.	.	.	.	.	.	8b-XJ)	.	.
.	.	4e'	.	4g' 4b-X	.	4gg'	.	viio
=44	=44	=44	=44	=44	=44	=44	=44	=44
2.r	.	4c#X'	.	4e'	.	(8ggL	.	V65/vi
.	.	.	.	.	.	8aJ)	.	.
.	.	4d'	.	4f'	.	4ff'	.	vi
.	.	4Bn'	.	4g' 4dd	.	(8ffL	.	V65/V
.	.	.	.	.	.	8gJ)	.	.
=45	=45	=45	=45	=45	=45	=45	=45	=45
4r	.	4cn'	.	4g' 4cc	.	4ee'	.	V
4r	.	4A'	.	4f' 4cc	.	(8eeL	.	.bIII.IV6(+7)
.	.	.	.	.	.	8fJ)	.	.
4GG'	pp	4B'	.	(8fL	.	4dd'	.	V7
.	.	.	.	8GJ)	.	.	.	.
=46	=46	=46	=46	=46	=46	=46	=46	=46
!LO:TX:b:i:t=cresc.	!	!LO:TX:b:i:t=cresc.	!	!LO:TX:b:i:t=cresc.	!	!	!	!
(8AAL	.	(4D	.	(2f	.	2.r	.	.
8FF#XJ)	.	.	.	.	.	.	.	.
4GG'	.	4d	.	.	.	.	.	.
4r	.	8cL	.	8eL	.	.	.	.
.	.	8BJ)	.	8dJ)	.	.	.	.
=47	=47	=47	=47	=47	=47	=47	=47	=47
(8AAL	.	(2E	.	(2g	.	2.r	.	.
8FF#XJ)	.	.	.	.	.	.	.	.
4GG'	.	.	.	.	.	.	.	.
4r	.	8DL	.	8fL	.	.	.	.
.	.	8CJ)	.	8eJ)	.	.	.	.
=48	=48	=48	=48	=48	=48	=48	=48	=48
!	!	!	!	!	!	!LO:TX:b:i:t=cresc.	!	!
(8AAL	.	(2F	.	(2Bn 2d	.	(2dd	.	.
8FF#XJ)	.	.	.	.	.	.	.	.
4GG'	.	.	.	.	.	.	.	.
4r	.	8cL	.	8eL	.	8ccL	.	.
.	.	8dJ)	.	8fJ)	.	8bnJ)	.	.
=49	=49	=49	=49	=49	=49	=49	=49	=49
(8AAL	.	(2G	.	(2c 2e	.	(2ee	.	V(64)
8FF#XJ)	.	.	.	.	.	.	.	.
4GG'	.	.	.	.	.	.	.	.
4r	.	8dL	.	8fL	.	8ddL	.	.
.	.	8eJ)	.	8gJ)	.	8ccJ)	.	.
=50	=50	=50	=50	=50	=50	=50	=50	=50
(2fn	.	(2d 2dd	.	(2g 2bn	.	(8aaL	.	V43
.	.	.	.	.	.	8ff#XJ)	.	.
.	.	.	.	.	.	4gg'	.	.
8eL	.	8gL	.	8ccL	.	4r	.	.
8dJ)	.	8fJ)	.	8ddJ)	.	.	.	.
=51	=51	=51	=51	=51	=51	=51	=51	=51
(2g	.	(2e 2ee	.	(2g 2cc	.	(8aaL	.	I6
.	.	.	.	.	.	8ff#XJ)	.	.
.	.	.	.	.	.	4gg'	.	.
8fL	.	8aL	.	8ddL	.	4r	.	.
8eJ)	.	8gJ)	.	8eeJ)	.	.	.	.
=52	=52	=52	=52	=52	=52	=52	=52	=52
(4BBn	p	2.r	.	2.r	.	(2e	p	I
4C	.	.	.	.	.	.	.	.
4E)	.	.	.	.	.	8dL	.	.
.	.	.	.	.	.	8cJ)	.	.
=53	=53	=53	=53	=53	=53	=53	=53	=53
2.r	.	(4E	p	(2cc	p	(8BL	.	I+6
.	.	.	.	.	.	8G#XJ)	.	.
.	.	4F	.	.	.	4A'	.	IV
.	.	4A)	.	8bL	.	4r	.	vi
.	.	.	.	8aJ)	.	.	.	.
*clefC4	*	*	*	*	*	*	*	*
=54	=54	=54	=54	=54	=54	=54	=54	=54
(4c#X	.	(4e	.	(8gL	.	(2a	.	ii
.	.	.	.	8eJ)	.	.	.	.
4d	.	4d	.	4f	.	.	.	.
4f)	.	4a)	.	4d	.	8gL	.	.
.	.	.	.	.	.	8fJ)	.	.
=55	=55	=55	=55	=55	=55	=55	=55	=55
(2g	.	(4b	.	(4G 4d	.	(8fL	.	V7
.	.	.	.	.	.	8dJ)	.	.
.	.	4cc	.	4c)	.	4e'	.	I64
8fL	.	8ddL	.	4r	.	(8aL	.	ii6
8eJ)	.	8eeJ)	.	.	.	8gJ)	.	iii
*clefF4	*	*	*	*	*	*	*	*
=56	=56	=56	=56	=56	=56	=56	=56	=56
(2G	.	(4G 4d	.	(4b	.	(8fL	.	V7
.	.	.	.	.	.	8dJ)	.	.
.	.	4c	.	4cc	.	4e'	.	I64
!LO:TX:b:i:t=cresc.	!	!LO:TX:b:i:t=cresc.	!	!LO:TX:b:i:t=cresc.	!	!LO:TX:b:i:t=cresc.	!	!
8FL	.	8BL	.	8ddL	.	(8aaL	.	vii%43
8EJ)	.	8cJ)	.	8eeJ)	.	8ggJ)	.	I6
=57	=57	=57	=57	=57	=57	=57	=57	=57
(4BB	.	4G	.	(8ddL	.	(8ffL	.	V65
.	.	.	.	8fJ)	.	8ddJ)	.	.
4Cn	.	4G	.	4e'	.	4ee'	.	I
4E	.	4G#X	.	4r	.	(8eeL	.	V7/vi
.	.	.	.	.	.	8ddJ)	.	.
=58	=58	=58	=58	=58	=58	=58	=58	=58
4G#X	.	(8BL	.	4r	.	(8ddL	.	V65/vi
.	.	8eJ)	.	.	.	8bJ)	.	.
4A)	.	4e	.	4r	.	4cc'	.	vi
4r	.	(4e	.	(4gg#X	.	(8cccL	.	i.V(6)
.	.	.	.	.	.	8bbJ)	.	V
=59	=59	=59	=59	=59	=59	=59	=59	=59
4r	.	4g#X	.	8bbL	.	(8dddL	.	V65
.	.	.	.	8eeJ)	.	8bbJ)	.	.
4r	.	4a)	.	4ee	.	4ccc'	.	i
(4CC	.	(4C	.	4r	.	(8cccL	.	i6
.	.	.	.	.	.	8bbJ)	.	.
=60	=60	=60	=60	=60	=60	=60	=60	=60
4EE	.	4E	.	4r	.	(8bbL	.	V
.	.	.	.	.	.	8gg#XJ)	.	.
4FF)	.	4F)	.	4r	.	4aa'	.	VI
4r	.	(4c	f	(4cc	f	(8cccL	f	.
.	.	.	.	.	.	8bbJ)	.	.
=61	=61	=61	=61	=61	=61	=61	=61	=61
4r	.	4e	.	4ee	.	(8bbL	.	V
.	.	.	.	.	.	8gg#XJ)	.	.
4r	.	4f)	.	4ff)	.	4aa'	.	VI
*clefC4	*	*	*	*	*	*	*	*
(4c	p	(4e	p	(8ccL	p	4r	.	i6
.	.	.	.	8bJ)	.	.	.	.
=62	=62	=62	=62	=62	=62	=62	=62	=62
4e	.	4E	.	(8bL	.	4r	.	V
.	.	.	.	8g#XJ)	.	.	.	.
4f)	.	4F)	.	4a'	.	4r	.	VI
(4c#X	f	(4A	f	4ee	f	(8aaL	f	V/iv
.	.	.	.	.	.	8gg#XJ)	.	.
=63	=63	=63	=63	=63	=63	=63	=63	=63
4e)	.	4c#X)	.	(8eeL	.	(8ggL	.	V65/iv
.	.	.	.	8aJ)	.	8eeJ)	.	.
4f	.	4d	.	4a'	.	4ff'	.	iv6
4r	.	(8AL	p	(8aL	p	(4aa	p	i
.	.	8GnJ)	.	8gnJ)	.	.	.	.
=64	=64	=64	=64	=64	=64	=64	=64	=64
4r	.	(8GL	.	(8gL	.	4ccc#X	.	#viio6/iv
.	.	8EJ)	.	8eJ)	.	.	.	.
4r	.	4F'	.	4f'	.	4ddd)	.	iv6
*clefF4	*	*	*	*	*	*	*	*
(8FL	f	(8fL	f	4r	.	4r	.	VI
8EJ)	.	8eJ)	.	.	.	.	.	.
=65	=65	=65	=65	=65	=65	=65	=65	=65
(8EL	.	(8eL	.	4r	.	4r	.	#viio/iv
8C#XJ)	.	8c#XJ)	.	.	.	.	.	.
4D'	.	4d'	.	4r	.	4r	.	iv
4r	.	4r	.	(8ddL	p	(8dddL	p	.
.	.	.	.	8ccnJ)	.	8cccnJ)	.	.
=66	=66	=66	=66	=66	=66	=66	=66	=66
4r	.	4r	.	(8ccL	.	(8cccL	.	i
.	.	.	.	8aJ)	.	8aaJ)	.	.
4r	.	4r	.	4b'	.	4bb'	.	#viio
(8CnL	f	(8cnL	f	4r	.	4r	.	.
8BBJ)	.	8BJ)	.	.	.	.	.	.
=67	=67	=67	=67	=67	=67	=67	=67	=67
(8BBL	.	(8BL	.	4r	.	4r	.	.
8GG#XJ)	.	8G#XJ)	.	.	.	.	.	.
4AA'	.	4A'	.	4r	.	4r	.	i
4r	.	4r	.	(8ccL	p	(8cccL	p	.
.	.	.	.	8bJ)	.	8bbJ)	.	.
=68	=68	=68	=68	=68	=68	=68	=68	=68
4r	.	4r	.	(8bL	.	(8bbL	.	#viio
.	.	.	.	8g#XJ)	.	8gg#XJ)	.	.
4r	.	4r	.	4a'	.	4aa'	.	i
!LO:TX:b:i:t=dim.	!	!LO:TX:b:i:t=dim.	!	!	!	!	!	!
(8C#XL	.	(8c#XL	.	4r	.	4r	.	I.I6
8BBJ)	.	8BJ)	.	.	.	.	.	.
=69	=69	=69	=69	=69	=69	=69	=69	=69
(8BBL	.	(8BL	.	4r	.	4r	.	viio
8GG#XJ)	.	8G#XJ)	.	.	.	.	.	.
4AA'	.	4A'	.	4r	.	4r	.	I
(8C#XL	pp	(8c#XL	pp	(8cc#XL	pp	(8ccc#XL	pp	.
8BBJ)	.	8BJ)	.	8bJ)	.	8bbJ)	.	.
=70	=70	=70	=70	=70	=70	=70	=70	=70
(8dL	<	2.A	<	(8bL	<	(8bbL	<	viio6
8BJ)	.	.	.	8g#XJ)	.	8gg#XJ)	.	.
4c#X'	.	.	.	4a'	.	4aa'	.	I
(8d#XL	.	.	.	(8f#XL	.	(8ff#XL	.	#viio64/V
8f#XJ)	.	.	.	8bJ)	.	8dd#XJ)	.	.
=71	=71	=71	=71	=71	=71	=71	=71	=71
2G#X	.	(8c#XL	.	[4e	.	4ee'	.	V6(6#4)
.	.	8A#XJ)	.	.	.	.	.	.
.	.	4B'	.	8eL]	.	(8ddnL	.	V65
.	.	.	.	(8d	.	8bJ)	.	.
4A	[[	(8AnL	.	8c#X	.	4cc#X'	[[	I
.	.	8BJ)	[[	8dJ)	[[	.	.	.
=72||	=72||	=72||	=72||	=72||	=72||	=72||	=72||	=72||
*k[f#c#g#]	*	*k[f#c#g#]	*	*k[f#c#g#]	*	*k[f#c#g#]	*	*
(4GG#	p	(8c#L	p	(8eL	p	(2cc#	p <	.
.	.	8B	.	8d	.	.	.	.
4AA	.	8A	.	8c#	.	.	.	.
.	.	8BJ	.	8dJ	.	.	.	.
4C#)	.	8A)	.	8e)	.	8bL	[ >	I6(9)
.	.	8r	.	8r	.	8aJ)	]]	I6
=73	=73	=73	=73	=73	=73	=73	=73	=73
(4C#	.	(8AL	.	2.r	.	(8g#L	.	III(+6)
.	.	8G#	.	.	.	8e#XJ)	.	III
4Dn	.	8F#	.	.	.	4f#'	.	IV
.	.	8G#J	.	.	.	.	.	.
4F#)	.	8A)	.	.	.	4r	.	IV6
.	.	8r	.	.	.	.	.	.
=74	=74	=74	=74	=74	=74	=74	=74	=74
(4AA#X	.	2.r	.	(8f#L	.	(2dd	<	ii
.	.	.	.	8e	.	.	.	.
4BB	.	.	.	8d	.	.	.	.
.	.	.	.	8eJ	.	.	.	.
4D)	.	.	.	8f#)	.	8cc#L	[ >	ii6(2)
.	.	.	.	8r	.	8bJ)	]]	ii6
=75	=75	=75	=75	=75	=75	=75	=75	=75
(4D#X	.	(8BL	.	2.r	.	(8aL	.	V65/V
.	.	8A	.	.	.	8f#J)	.	.
4E	.	8G#	.	.	.	4g#'	.	V
.	.	8AJ	.	.	.	.	.	.
4G#)	.	8B)	.	.	.	4r	.	V6
.	.	8r	.	.	.	.	.	.
=76	=76	=76	=76	=76	=76	=76	=76	=76
2.r	.	(8c#L	.	(8eL	.	(2ee	<	I
.	.	8B	.	8d	.	.	.	.
.	.	8A	.	8c#	.	.	.	.
.	.	8BJ	.	8dJ	.	.	.	.
.	.	8c#)	.	8e)	.	8ddL	[ >	I6
.	.	8r	.	8r	.	8cc#J)	]]	.
=77	=77	=77	=77	=77	=77	=77	=77	=77
4r	.	4F#	pp	4A	pp	(8bL	pp	vi(11)
.	.	.	.	.	.	8g#J)	.	.
(8G#L	pp	4r	.	4r	.	4a'	.	vi
8E#XJ)	.	.	.	.	.	.	.	.
4F#'	.	4r	.	4r	.	4r	.	.
=78	=78	=78	=78	=78	=78	=78	=78	=78
4r	.	4F#	.	4d#X	.	(8cc#L	.	V64(2)/V
.	.	.	.	.	.	8a#XJ)	.	.
(8C#L	.	4r	.	4r	.	4b'	.	.
8AA#XJ)	.	.	.	.	.	.	.	.
4BB'	.	4r	.	4r	.	4r	.	V/V
=79	=79	=79	=79	=79	=79	=79	=79	=79
4r	.	4E	.	4B 4e	.	(8anL	.	V(4)
.	.	.	.	.	.	8f#J)	.	.
(8F#L	.	4r	.	4r	.	4g#'	.	V
8D#XJ)	.	.	.	.	.	.	.	.
4En'	.	4r	.	4r	.	4r	.	.
=80	=80	=80	=80	=80	=80	=80	=80	=80
(4E#X	.	2.r	.	(2a	<	(2aa	<	vi
4F#	.	.	.	.	.	.	.	.
4A)	.	.	.	8g#L	[ >	8gg#L	] > >	vi6
.	.	.	.	8f#J)	]]	8ff#J)	]]	.
=81	=81	=81	=81	=81	=81	=81	=81	=81
(4A#X	pp	4r	.	(8eL	pp	(8eeL	] pp	#viio/ii
.	.	.	.	8c#J)	.	8cc#J)	.	.
4B	.	(8cc#L	pp	4dn'	.	4ddn'	.	ii(9)
.	.	8a#XJ)	.	.	.	.	.	.
4dn)	.	4b'	.	4r	.	4r	.	ii6
=82	=82	=82	=82	=82	=82	=82	=82	=82
(4F#	.	4r	.	(8f#L	.	(8ff#L	.	#viio6/V
.	.	.	.	8d#XJ)	.	8dd#XJ)	.	.
4G#	.	(8f#L	.	4B' 4e	.	4ee'	.	V6(9)
.	.	8d#XJ)	.	.	.	.	.	.
4B)	.	4e'	.	4r	.	4r	.	V64
=83	=83	=83	=83	=83	=83	=83	=83	=83
(4GG#	.	4r	.	(8dnL	.	(8ddnL	.	viio
.	.	.	.	8BJ)	.	8bJ)	.	.
4AAn	.	(8BL	.	4c#'	.	4cc#'	.	I(9)
.	.	8G#J)	.	.	.	.	.	.
4C#)	.	4A'	.	4r	.	4r	.	I6
=84	=84	=84	=84	=84	=84	=84	=84	=84
!LO:TX:b:i:t=cresc.	!	!LO:TX:b:i:t=cresc.	!	!LO:TX:b:i:t=cresc.	!	!	!	!
(2AA	.	(2A	.	(2cc#	.	2.r	.	viio
8GG#L	.	8G#L	.	8bL	.	.	.	.
8FF#J)	.	8F#J)	.	8aJ)	.	.	.	.
=85	=85	=85	=85	=85	=85	=85	=85	=85
(8EEL	.	(8EL	.	(8g#L	.	4r	.	III
8CC#J)	.	8C#J)	.	8e#XJ)	.	.	.	.
!	!	!	!	!	!	!LO:TX:b:i:t=cresc.	!	!
4DD'	.	4D'	.	4f#'	.	(8gg#L	.	IV(11)
.	.	.	.	.	.	8ee#XJ)	.	.
4r	.	4r	.	4r	.	4ff#'	.	IV
=86	=86	=86	=86	=86	=86	=86	=86	=86
(8FF#L	.	(8F#L	.	(8aL	.	4r	.	#viio/V
8DD#XJ)	.	8D#XJ)	.	8f#J)	.	.	.	.
4EE'	.	4E'	.	4g#'	.	(8ff#L	.	V(9)
.	.	.	.	.	.	8dd#XJ)	.	.
4r	.	4r	.	4r	.	4een'	.	V
=87	=87	=87	=87	=87	=87	=87	=87	=87
(8DnL	.	(8dnL	.	(8bL	.	4r	.	viio6
8BBJ)	.	8BJ)	.	8g#J)	.	.	.	.
4C#'	.	4c#'	.	4a'	.	(8ff#XL	.	I6(6)
.	.	.	.	.	.	8dd	.	.
4r	.	4r	.	4r	.	8ee	.	I6
.	.	.	.	.	.	8ccc#J)	.	.
=88	=88	=88	=88	=88	=88	=88	=88	=88
2.r	.	(8bL	p	(8ddL	p	(2ccc#	p <	I
.	.	8g#J	.	8bJ	.	.	.	.
.	.	4a	.	4cc#	.	.	.	.
.	.	4cc#)	.	4een)	.	8bbL	[ >	I6(2)
.	.	.	.	.	.	8aaJ)	]]	I6
=89	=89	=89	=89	=89	=89	=89	=89	=89
(4c#	.	(2a	<	(4e#X	.	(2aa	<	IV
4d	.	.	.	4f#	.	.	.	.
4f#)	.	8g#L	[ >	4a)	.	8gg#L	[ >	IV6
.	.	8f#J)	]]	.	.	8ff#J)	]]	.
=90	=90	=90	=90	=90	=90	=90	=90	=90
2.r	.	(8cc#L	.	(8eenL	.	(2ddd	<	ii
.	.	8a#XJ	.	8cc#J	.	.	.	.
.	.	4b	.	4dd	.	.	.	.
.	.	4dd)	.	4ff#)	.	8ccc#L	[ >	ii6(2)
.	.	.	.	.	.	8bbJ)	]]	ii6
=91	=91	=91	=91	=91	=91	=91	=91	=91
(4d#X	.	(2b	<	(4f#	.	(2bb	<	V
4e	.	.	.	4g#	.	.	.	.
4g#)	.	8anL	[ >	4b)	.	8aaL	[ >	viio(9)
.	.	8g#J)	]]	.	.	8gg#J)	]]	viio
=92	=92	=92	=92	=92	=92	=92	=92	=92
!LO:TX:b:i:t=cresc.	!	!LO:TX:b:i:t=cresc.	!	!LO:TX:b:i:t=cresc.	!	!LO:TX:b:i:t=cresc.	!	!
(4BB#X	.	(4B#X	.	(2ee	.	(2eee	.	iii
4C#	.	4c#	.	.	.	.	.	.
4E)	.	4e)	.	8ddL	.	8dddL	.	iii6(2)
.	.	.	.	8cc#J)	.	8ccc#J)	.	iii6
=93	=93	=93	=93	=93	=93	=93	=93	=93
(4E#X	.	(4e#X	.	(8bL	.	(8bbL	.	#viio/vi
.	.	.	.	8g#J)	.	8gg#J)	.	.
4F#	.	4f#	.	4a'	.	4aa'	.	vi
4A)	.	4c#)	.	(8cc#L	.	(8aaL	.	V7/IV
.	.	.	.	8eeJ)	.	8ggnJ)	.	.
=94	=94	=94	=94	=94	=94	=94	=94	=94
(4CC#	.	(4C#	.	4a'	.	(8ggnL	.	V65/IV
.	.	.	.	.	.	8ee#XJ)	.	.
4DDn	.	4D	.	4a'	.	4ff#'	.	IV
4FF#)	.	4F#)	.	(8a#XL	.	(8ff#L	.	V7/ii
.	.	.	.	8cc#J)	.	8eenJ)	.	.
=95	=95	=95	=95	=95	=95	=95	=95	=95
(4AA#X	.	(4A#X	.	4f#'	.	(8eeL	.	V65/ii
.	.	.	.	.	.	8cc#J)	.	.
4BBn	.	4Bn	.	4f#'	.	4dd'	.	ii
4EE)	.	4E)	.	(8g#L	.	(8eeeL	.	V7
.	.	.	.	8bJ)	.	8dddJ)	.	.
=96	=96	=96	=96	=96	=96	=96	=96	=96
(4GG#	.	(4G#	.	(8eL	.	(8dddL	.	V65
.	.	.	.	8bJ)	.	8bbJ)	.	.
4AAn)	.	4An)	.	4e'	.	4aa'	.	I
*clefC4	*	*	*	*	*	*	*	*
!LO:TX:b:t=ps	!	!	!	!	!	!	!	!
(8f#L	.	[4f#	p	(4a#X	p	(8dddL	p	V(6)/ii
8eJ)	.	.	.	.	.	8ccc#J)	.	V2/ii
=97	=97	=97	=97	=97	=97	=97	=97	=97
(8eL	.	2f#]	.	4cc#	.	(8ccc#L	.	.
8c#J)	.	.	.	.	.	8aa#XJ)	.	.
4d'	.	.	.	4ff#)	.	4bb'	.	ii6
!LO:TX:b:i:t=cresc.	!	!LO:TX:b:i:t=cresc.	!	!LO:TX:b:i:t=cresc.	!	!LO:TX:b:i:t=cresc.	!	!
(8eL	.	[4e	.	4g#	.	(8ccc#L	.	iiio6
8dJ)	.	.	.	.	.	8bbJ)	.	V2
=98	=98	=98	=98	=98	=98	=98	=98	=98
(8dL	.	2e]	.	4b	.	(8bbL	.	.
8BJ)	.	.	.	.	.	8gg#J)	.	V43
4c#'	.	.	.	4ee	.	4aan'	.	I6
*clefF4	*	*	*	*	*	*	*	*
4EE'	.	(8G#L	.	(8BL	.	(8dddL	.	V7
.	.	8AnJ)	.	8c#J)	.	8ccc#J)	.	V(64)
=99	=99	=99	=99	=99	=99	=99	=99	=99
4EE'	.	(8AL	.	(8c#L	.	(8ccc#L	.	.
.	.	8EJ)	.	8eJ)	.	8aa#XJ)	.	.
4E'	.	4G#'	.	4d'	.	4bb'	.	V7
!	!LO:DY:a	!	!	!	!	!	!	!
4EE'	f f	(8EL	.	(8eL	f	(8ccc#L	f	V(6)
.	.	8DJ)	.	8g#J)	.	8bbJ)	.	V7
=100	=100	=100	=100	=100	=100	=100	=100	=100
4EE'	.	(8dL	.	(8g#L	.	(8bbL	.	.
.	.	8EJ)	.	8bJ)	.	8gg#J)	.	.
4AA'	.	4E'	.	4e' 4a	.	4aan'	.	I\\
(4AA	p	(4A	p	(4A	p	(4a	p	I
=101	=101	=101	=101	=101	=101	=101	=101	=101
4GG#	.	4G#	.	4G#	.	4g#	.	.
4AA	.	4A	.	4A	.	4a	.	.
4Cn)	.	4cn)	.	4cn)	.	4ccn)	.	.bIII.I
=102	=102	=102	=102	=102	=102	=102	=102	=102
(4BB	.	(4B	.	(4B	.	(4b	.	.
4Cn	.	4cn	.	4cn	.	4ccn	.	.
4E)	.	4E)	.	4e)	.	4ee)	.	.
=103	=103	=103	=103	=103	=103	=103	=103	=103
(4FF#	.	(4F#	.	(4f#	.	(4f#	.	.
4GGn	.	4Gn	.	4gn	.	4gn	.	.
4Cn)	.	4cn)	.	4cn)	.	4ccn)	.	.
=104	=104	=104	=104	=104	=104	=104	=104	=104
(4BB	.	(4B	.	(4B	.	(4b	.	.
4Cn	.	4cn	.	4cn	.	4ccn	.	.
4E)	.	4E)	.	4e)	.	4ee)	.	.
=105:|!	=105:|!	=105:|!	=105:|!	=105:|!	=105:|!	=105:|!	=105:|!	=105:|!
4EE'	.	(8DL	.	(8g#L	.	(8bbL	.	I.V
.	.	8EJ)	.	8bJ)	.	8gg#J)	.	.
4AA'	.	4C#'	.	4e' 4a	.	4aan'	.	I\\
4r	.	4r	.	(8aL	pp	(8ff#L	pp	vi6
.	.	.	.	8g#J)	.	8eeJ)	.	V6
=106	=106	=106	=106	=106	=106	=106	=106	=106
4r	.	4r	.	(8g#L	.	(8eeL	.	iii6
.	.	.	.	8eJ)	.	8cc#J)	.	.
4r	.	4r	.	4f#'	.	4dd#X'	.	#iv
*clefC4	*	*	*	*	*	*	*	*
(8c#L	pp	(8AL	pp	4r	.	4r	.	I6
8BJ)	.	8G#J)	.	.	.	.	.	.
=107	=107	=107	=107	=107	=107	=107	=107	=107
(8BL	.	(8G#L	.	4r	.	4r	.	#vo6
8G#J)	.	8E#XJ)	.	.	.	.	.	.
4A'	.	4F#'	.	4r	.	4r	.	I
4r	.	4r	.	(8bL	.	(8gg#L	.	vii6
.	.	.	.	8aJ)	.	8ff#J)	.	vi6
=108	=108	=108	=108	=108	=108	=108	=108	=108
4r	.	4r	.	(8aL	.	(8ff#L	.	#viio6/V
.	.	.	.	8f#J)	.	8dd#XJ)	.	.
4r	.	4r	.	4g#'	.	4ee'	.	V6
(8g#L	.	(8BL	.	4r	.	4r	.	vii
8f#J)	.	8AJ)	.	.	.	.	.	.
=109	=109	=109	=109	=109	=109	=109	=109	=109
(8f#L	.	(8AL	.	4r	.	4r	.	#viio/V
8d#XJ)	.	8F#J)	.	.	.	.	.	.
4e'	.	4G#'	.	4r	.	4r	.	V
!LO:TX:b:i:t=sempre	!	!LO:TX:b:i:t=sempre	!	!LO:TX:b:i:t=sempre	!	!LO:TX:b:i:t=sempre	!	!
(8f#L	.	(8AL	.	(8d#XL	.	(8f#L	.	#viio64/V
8eJ)	.	8G#J)	.	8eJ)	.	8g#J)	.	V6
=110	=110	=110	=110	=110	=110	=110	=110	=110
(8eL	pp	(8G#L	pp	(8eL	pp	(8g#L	pp	.
8c#J)	.	8EnJ)	.	8g#J)	.	8bJ)	.	iii7
4d#X'	.	4F#'	.	4f#'	.	4a'	.	#ivo
*clefF4	*	*	*	*	*	*	*	*
(8D#XL	.	(8F#L	.	(8aaL	.	(8ccc#L	.	#vii%7/V
8EJ)	.	8G#J)	.	8gg#J)	.	8bbJ)	.	V
=111	=111	=111	=111	=111	=111	=111	=111	=111
(8E#XL	.	(8G#L	.	(8gg#L	.	(8bbL	.	#viio/vi
8G#J)	.	8BJ)	.	8ee#XJ)	.	8gg#J)	.	#viio64/vi
4F#'	.	4A'	.	4ff#'	.	4aa'	.	vi
*clefC4	*	*	*	*	*	*	*	*
(8g#L	.	(8BL	.	(8enL	.	(8g#L	.	V64
8f#J)	.	8AJ)	.	8f#J)	.	8aJ)	.	vi6
=112	=112	=112	=112	=112	=112	=112	=112	=112
(8f#L	.	(8AL	.	(8f#L	.	(8aL	.	.
8d#XJ)	.	8F#J)	.	8aJ)	.	8cc#J)	.	#vii%7/V
4en'	.	4G#'	.	4g#'	.	4b'	.	V6
(8G#L	.	(8BL	.	(8ff#L	.	(8dddL	.	vii%7
8AJ)	.	8c#J)	.	8eenJ)	.	8ccc#J)	.	I
=113	=113	=113	=113	=113	=113	=113	=113	=113
(8A#XL	.	(8c#L	.	(8eeL	.	(8ccc#L	.	#viio/ii
8c#J)	.	8eJ)	.	8cc#J)	.	8aa#XJ)	.	.
4B'	.	4d'	.	4ddn'	.	4bb'	.	ii
*clefF4	*	*	*	*	*	*	*	*
!LO:TX:b:i:t=cresc.	!	!LO:TX:b:i:t=cresc.	!	!LO:TX:b:i:t=cresc.	!	!LO:TX:a:i:t=cresc.	!	!
(4EE	.	(4E	.	(8ccc#L	.	(8eeeL	.	V(6)
.	.	.	.	8bbJ)	.	8dddJ)	.	V7
=114	=114	=114	=114	=114	=114	=114	=114	=114
4GG#	.	4G#	.	(8eeL	.	(8ccc#L	.	V65
.	.	.	.	8ddJ)	.	8bbJ)	.	.
4BB)	.	4B)	.	(8cc#L	.	(8aanL	.	viio6(112)
.	.	.	.	8bJ)	.	8gg#J)	.	viio6
(8EL	.	(8eL	.	(4e	.	(4g#	.	V7
8DnJ)	.	8dJ)	.	.	.	.	.	.
=115	=115	=115	=115	=115	=115	=115	=115	=115
(8C#L	.	(8c#L	.	4g#	.	4b	.	.
8BBJ)	.	8BJ)	.	.	.	.	.	.
(8AAL	.	(8AL	.	4b)	.	4dd	.	.
8GG#J)	.	8G#J)	.	.	.	.	.	.
4GG#^;	.	4G#^;	.	4d^; 4b	.	4ff#^;)	.	vii%7
*clefC4	*	*	*	*	*	*	*	*
=116	=116	=116	=116	=116	=116	=116	=116	=116
(2f#	p	(2d	p	2.r	.	2.r	.	IV
8eL	.	8c#L	.	.	.	.	.	.
8dJ)	.	8BJ)	.	.	.	.	.	.
=117	=117	=117	=117	=117	=117	=117	=117	=117
(8dL	.	(8BL	.	(2cc#	p	(2ee	p	I
8BJ)	.	8G#J)	.	.	.	.	.	.
4c#'	.	4A'	.	.	.	.	.	.
4r	.	4r	.	8bL	.	8ddL	.	.
.	.	.	.	8aJ)	.	8cc#J)	.	.
=118	=118	=118	=118	=118	=118	=118	=118	=118
(2d	<	(2f#	<	(8aL	.	(8cc#L	.	IV
.	.	.	.	8f#J)	.	8aJ)	.	.
.	.	.	.	4g#'	.	4b'	.	vii%43
8c#L	[ >	8eL	[ >	4r	.	4r	.	viio6
8BJ)	]]	8dJ)	]]	.	.	.	.	.
=119	=119	=119	=119	=119	=119	=119	=119	=119
(8BL	.	(8dL	.	(2cc#	<	(2ee	<	I
8G#J)	.	8BJ)	.	.	.	.	.	.
4A'	.	4c#'	.	.	.	.	.	.
4r	.	4r	.	8bL	[ >	8ddL	[ >	.
.	.	.	.	8aJ)	]]	8cc#J)	]]	.
=120	=120	=120	=120	=120	=120	=120	=120	=120
!	!	!LO:TX:b:i:t=cresc.	!	!LO:TX:b:i:t=cresc.	!	!LO:TX:b:i:t=cresc.	!	!
2.r	.	(2ee	.	(8aL	.	(8cc#L	.	V6(64)
.	.	.	.	8f#J)	.	8aJ)	.	.
.	.	.	.	4g#'	.	4b'	.	V6
.	.	8ddL	.	4r	.	4r	.	.
.	.	8cc#J)	.	.	.	.	.	.
=121	=121	=121	=121	=121	=121	=121	=121	=121
!LO:TX:b:i:t=cresc.	!	!	!	!	!	!	!	!
(2e	.	2.r	.	(8bL	.	(8ddL	.	V7
.	.	.	.	8g#J)	.	8bJ)	.	.
.	.	.	.	4a'	.	4cc#'	.	V(64)
8dL	.	.	.	4r	.	4r	.	.
8c#J)	.	.	.	.	.	.	.	.
*clefF4	*	*	*	*	*	*	*	*
=122	=122	=122	=122	=122	=122	=122	=122	=122
(2E	.	(2e	.	(8cc#L	.	(8aaL	.	V(64)
.	.	.	.	8aJ)	.	8ff#J)	.	.
.	.	.	.	4b'	.	4gg#'	.	V
8DL	.	8dL	.	4r	.	4r	.	.
8C#J)	.	8c#J)	.	.	.	.	.	.
=123	=123	=123	=123	=123	=123	=123	=123	=123
(8BBL	f	(8BL	f	(2ee	f	(2eee	f	I
8GG#J)	.	8G#J)	.	.	.	.	.	.
4AA'	.	4A'	.	.	.	.	.	.
4r	.	4r	.	8ddL	.	8dddL	.	.
.	.	.	.	8cc#J)	.	8ccc#J)	.	.
=124	=124	=124	=124	=124	=124	=124	=124	=124
4r	.	4r	.	(8bL	.	(8bbL	.	viio
.	.	.	.	8g#J)	.	8gg#J)	.	.
(8BL	.	(8dL	.	4a'	.	4aa'	.	I(42)
8G#J)	.	8BJ)	.	.	.	.	.	.
4A'	.	4c#'	.	4r	.	4r	.	I
=125	=125	=125	=125	=125	=125	=125	=125	=125
4E'	p	(8G#L	p	(8dL	p	(8bL	p	V7
.	.	8BJ)	.	8eJ)	.	8g#J)	.	.
4AA'	.	4A'	.	4c#'	.	4a'	.	I\\
==126	==126	==126	==126	==126	==126	==126	==126	==126
2.r	.	2.r	.	2.r	.	(4ccc#	p	I[I
.	.	.	.	.	.	2r)	.	.
=127	=127	=127	=127	=127	=127	=127	=127	=127
*	*	*	*	*	*	*^	*	*
2.r	.	2.r	.	2.r	.	4r	2.a	p	.
.	.	.	.	.	.	4r	.	.	.
.	.	.	.	.	.	(4eee	.	.	.
=128	=128	=128	=128	=128	=128	=128	=128	=128	=128
2.r	.	2.r	.	4r	.	4r)	2.a	.	.
.	.	.	.	4r	.	4r	.	.	.
.	.	.	.	(8AL	p	(4fff#	.	.	.
.	.	.	.	8c#J	.	.	.	.	.
=129	=129	=129	=129	=129	=129	=129	=129	=129	=129
2.r	.	2.r	.	8eL	.	4r)	[2.a	.	.
.	.	.	.	8a	.	.	.	.	.
.	.	.	.	8cc#	.	4r	.	.	.
.	.	.	.	8eeJ)	.	.	.	.	.
.	.	.	.	(8cc#L	.	(4eee	.	.	.
.	.	.	.	8aaJ	.	.	.	.	.
=130	=130	=130	=130	=130	=130	=130	=130	=130	=130
2.r	.	2.r	.	8ddL	.	4fff#	2.a_	.	IV
.	.	.	.	8aa	.	.	.	.	.
.	.	.	.	8cc#	.	4eee	.	.	I6
.	.	.	.	8aa	.	.	.	.	.
.	.	.	.	8b	.	4ddd	.	.	ii
.	.	.	.	8aaJ	.	.	.	.	.
=131	=131	=131	=131	=131	=131	=131	=131	=131	=131
2.r	.	2.r	.	8cc#L	.	2eee)	2.a_	.	V64
.	.	.	.	8aa	.	.	.	.	.
.	.	.	.	8b	.	.	.	.	.
.	.	.	.	8aa	.	.	.	.	.
.	.	.	.	8a	.	(4ccc#	.	.	I
.	.	.	.	8aaJ)	.	.	.	.	.
=132	=132	=132	=132	=132	=132	=132	=132	=132	=132
2.r	.	2.r	.	(8bL	.	4ddd	2.a_	.	ii
.	.	.	.	8aa	.	.	.	.	.
.	.	.	.	8a	.	4ccc#	.	.	I
.	.	.	.	8aa	.	.	.	.	.
.	.	.	.	8b	.	4ddd	.	.	ii
.	.	.	.	8aaJ)	.	.	.	.	.
=133	=133	=133	=133	=133	=133	=133	=133	=133	=133
2.r	.	2.r	.	(8bL	.	8ccc#L	2.a_	.	.
.	.	.	.	8aa	.	8dddJ	.	.	.
.	.	.	.	8cc#	.	4eee)	.	.	I6
.	.	.	.	8aa	.	.	.	.	.
.	.	.	.	8dd	.	(4eee	.	.	.
.	.	.	.	8cc#J)	.	.	.	.	.
=134	=134	=134	=134	=134	=134	=134	=134	=134	=134
2.r	.	2.r	.	(8ddL	.	4fff#	2.a_	.	IV
.	.	.	.	8aa	.	.	.	.	.
.	.	.	.	8cc#	.	4eee	.	.	I6
.	.	.	.	8aa	.	.	.	.	.
.	.	.	.	8b	.	4ddd	.	.	ii
.	.	.	.	8aaJ	.	.	.	.	.
=135	=135	=135	=135	=135	=135	=135	=135	=135	=135
2.r	.	2.r	.	8cc#L	.	2eee	2.a_	.	I6
.	.	.	.	8aa	.	.	.	.	.
.	.	.	.	8b	.	.	.	.	.
.	.	.	.	8aa	.	.	.	.	.
.	.	.	.	8a	.	4ccc#	.	.	I
.	.	.	.	8aaJ)	.	.	.	.	.
=136	=136	=136	=136	=136	=136	=136	=136	=136	=136
2.r	.	2.r	.	(8bL	.	4ddd	2.a_	.	ii
.	.	.	.	8aa	.	.	.	.	.
.	.	.	.	8a	.	4ccc#	.	.	I
.	.	.	.	8aa	.	.	.	.	.
.	.	.	.	8ff#	.	8bbL	.	>	ii
.	.	.	.	8ddJ)	.	8dddJ	.	.	.
=137	=137	=137	=137	=137	=137	=137	=137	=137	=137
2.r	.	2.r	.	(8eeL	.	2ccc#)	2.a]	]	I64
.	.	.	.	8ff#	.	.	.	.	.
.	.	.	.	8ee	.	.	.	.	.
.	.	.	.	8cc#J)	.	.	.	.	.
.	.	.	.	(8aL	.	(4ccc#	.	.	I
.	.	.	.	8cc#J	.	.	.	.	.
=138	=138	=138	=138	=138	=138	=138	=138	=138	=138
2.r	.	4r	.	8eeL	.	4r)	2.a	.	.
.	.	.	.	8aa	.	.	.	.	.
.	.	4r	.	8ccc#	.	4r	.	.	.
.	.	.	.	8eeeJ)	.	.	.	.	.
.	.	(8AL	p	(8eeL	.	(4eee	.	.	.
.	.	8c#J	.	8aaJ	.	.	.	.	.
=139	=139	=139	=139	=139	=139	=139	=139	=139	=139
4r	.	8eL	.	8eeL	.	4r)	2.a	.	.
.	.	8a	.	8ccc#	.	.	.	.	.
4r	.	8cc#	.	8ee	.	4r	.	.	.
.	.	8eeJ)	.	8ccc#J)	.	.	.	.	.
(8AAL	p	[4A	.	(8eeL	.	4aaa	.	.	.
8C#J	.	.	.	8aaJ	.	.	.	.	.
=140	=140	=140	=140	=140	=140	=140	=140	=140	=140
8EL	.	2.A_	.	8eeL	.	4r	[2.a	.	.
8A	.	.	.	8ccc#	.	.	.	.	.
8c#	.	.	.	8ee	.	4r	.	.	.
8eJ)	.	.	.	8cc#J)	.	.	.	.	.
[4AA	.	.	.	(8cc#L	.	(4eee	.	.	.
.	.	.	.	8aaJ	.	.	.	.	.
=141	=141	=141	=141	=141	=141	=141	=141	=141	=141
2.AA_	.	2.A_	.	8ddL	.	4fff#	2.a_	.	IV
.	.	.	.	8aa	.	.	.	.	.
.	.	.	.	8cc#	.	4eee	.	.	I6
.	.	.	.	8aa	.	.	.	.	.
.	.	.	.	8b	.	4ddd	.	.	ii
.	.	.	.	8aaJ)	.	.	.	.	.
=142	=142	=142	=142	=142	=142	=142	=142	=142	=142
2.AA_	.	2.A_	.	(8cc#L	.	2eee)	2.a_	.	V64
.	.	.	.	8aa	.	.	.	.	.
.	.	.	.	8b	.	.	.	.	.
.	.	.	.	8aa	.	.	.	.	.
.	.	.	.	8a	.	(4ccc#	.	.	I
.	.	.	.	8aaJ)	.	.	.	.	.
=143	=143	=143	=143	=143	=143	=143	=143	=143	=143
2.AA_	.	2.A_	.	(8bL	.	4ddd	2.a_	.	ii
.	.	.	.	8aa	.	.	.	.	.
.	.	.	.	8a	.	4ccc#	.	.	I
.	.	.	.	8aa	.	.	.	.	.
.	.	.	.	8b	.	4ddd	.	.	ii
.	.	.	.	8aaJ	.	.	.	.	.
=144	=144	=144	=144	=144	=144	=144	=144	=144	=144
2.AA_	.	2.A_	.	8bL	.	8ccc#L	2.a_	.	.
.	.	.	.	8aa	.	8dddJ	.	.	.
.	.	.	.	8cc#	.	4eee)	.	.	I6
.	.	.	.	8aa	.	.	.	.	.
.	.	.	.	8dd	.	(4eee	.	.	.
.	.	.	.	8cc#J)	.	.	.	.	.
=145	=145	=145	=145	=145	=145	=145	=145	=145	=145
2.AA_	.	2.A_	.	(8ddL	.	4fff#	2.a_	.	IV
.	.	.	.	8aa	.	.	.	.	.
.	.	.	.	8cc#	.	4eee	.	.	I6
.	.	.	.	8aa	.	.	.	.	.
.	.	.	.	8b	.	4ddd	.	.	ii
.	.	.	.	8aaJ)	.	.	.	.	.
=146	=146	=146	=146	=146	=146	=146	=146	=146	=146
2.AA_	.	2.A_	.	(8cc#L	.	2eee	2.a_	.	I6
.	.	.	.	8aa	.	.	.	.	.
.	.	.	.	8b	.	.	.	.	.
.	.	.	.	8aa	.	.	.	.	.
.	.	.	.	8a	.	4ccc#	.	.	I
.	.	.	.	8aaJ)	.	.	.	.	.
=147	=147	=147	=147	=147	=147	=147	=147	=147	=147
2.AA_	.	2.A_	.	(8bL	.	4ddd	2.a_	.	ii
.	.	.	.	8aa	.	.	.	.	.
.	.	.	.	8a	.	4ccc#	.	.	I
.	.	.	.	8aa	.	.	.	.	.
.	.	.	.	8ff#	.	8dddL	.	>	IV
.	.	.	.	8ddJ)	.	8fff#J)	.	.	.
=148	=148	=148	=148	=148	=148	=148	=148	=148	=148
2AA]	.	2A]	.	(8eeL	.	2ccc#	2a]	]	I]
.	.	.	.	8a	.	.	.	.	.
.	.	.	.	8b	.	.	.	.	.
.	.	.	.	8cc#J)	.	.	.	.	.
*	*	*	*	*	*	*v	*v	*	*
4E#X'	pp	(8cc#L	pp	4g#' 4b	pp	4r	.	V65/vi
.	.	8b#XJ	.	.	.	.	.	.
=149	=149	=149	=149	=149	=149	=149	=149	=149
4E#X'	.	8cc#L	.	4c#' 4g#	.	4r	.	V6/vi
.	.	8bn	.	.	.	.	.	.
4E#'	.	8a	.	4c#' 4g#	.	4r	.	.
.	.	8g#J)	.	.	.	.	.	.
4F#'	.	4r	.	4c#' 4a	.	(8ff#L	.	vi
.	.	.	.	.	.	8ee#XJ	.	.
=150	=150	=150	=150	=150	=150	=150	=150	=150
4F#'	.	4r	.	4c#' 4a	.	8ff#L	.	.
.	.	.	.	.	.	8gg#	.	.
4F#'	.	4r	.	4c#' 4a	.	8aa	.	.
.	.	.	.	.	.	8ff#J)	.	.
4D#X'	.	(8bL	.	4B' 4f#	.	4r	.	V6/V
.	.	8a#XJ	.	.	.	.	.	.
=151	=151	=151	=151	=151	=151	=151	=151	=151
4D#X'	.	8bL	.	4B' 4f#	.	4r	.	.
.	.	8an	.	.	.	.	.	.
4D#'	.	8g#	.	4B' 4f#	.	4r	.	.
.	.	8f#J)	.	.	.	.	.	.
4En'	.	4r	.	4B' 4g#	.	(8eenL	.	V
.	.	.	.	.	.	8dd#XJ	.	.
=152	=152	=152	=152	=152	=152	=152	=152	=152
4E'	.	2.r	.	4B' 4g#	.	8eeL	.	.
.	.	.	.	.	.	8ff#	.	.
4E'	.	.	.	4B' 4g#	.	8gg#	.	.
.	.	.	.	.	.	8eeJ)	.	.
4F#'	.	.	.	4B' 4a	.	(8aaL	.	V.V43
.	.	.	.	.	.	8gg#J	.	.
=153	=153	=153	=153	=153	=153	=153	=153	=153
4F#'	.	2.r	.	4B' 4a	.	8aaL	.	.
.	.	.	.	.	.	8gg#	.	.
4F#'	.	.	.	4B' 4a	.	8aa	.	.
.	.	.	.	.	.	8bb	.	.
4F#'	.	.	.	4B' 4a	.	8ccc#	.	.
.	.	.	.	.	.	8ddd#XJ	.	.
=154	=154	=154	=154	=154	=154	=154	=154	=154
4G#'	.	2.r	.	4B' 4e	.	8eeeL	.	V6
.	.	.	.	.	.	8ddd#X	.	.
4G#'	.	.	.	4e' 4b	.	8eee	.	.
.	.	.	.	.	.	8bb	.	.
4A'	.	.	.	4e' 4cc#	.	8ccc#	.	I
.	.	.	.	.	.	8aaJ	.	.
=155	=155	=155	=155	=155	=155	=155	=155	=155
4B'	.	2.r	.	4e' 4b	.	8gg#L	.	V(64)
.	.	.	.	.	.	8ff##X	.	.
4B'	.	.	.	4e' 4ee	.	8gg#	.	.
.	.	.	.	.	.	8bb	.	.
4BB'	.	.	.	4f#' 4dd#X	.	8aa	.	V7
.	.	.	.	.	.	8ff#XJ)	.	.
=156	=156	=156	=156	=156	=156	=156	=156	=156
4E'	.	(8eL	.	4g#' 4ee	.	(8eeL	.	I\\
.	.	8g#	.	.	.	8gg#	.	I
4E'	.	8a	.	4G#'	.	8aa	.	.
.	.	8bJ)	.	.	.	8bbJ)	.	.
4E#X'	.	(8cc#L	.	4G#'	.	4c#' 4g#	.	V6/ii
.	.	8b#XJ	.	.	.	.	.	.
=157	=157	=157	=157	=157	=157	=157	=157	=157
4E#X'	.	8cc#L	.	4G#'	.	4c#' 4g#	.	.
.	.	8bn	.	.	.	.	.	.
4E#'	.	8a	.	4G#'	.	4c#' 4g#	.	.
.	.	8g#J)	.	.	.	.	.	.
4A'	.	(8f#L	.	(8ff#L	.	4c#' 4f#	.	ii6
.	.	8e#XJ	.	8ee#XJ	.	.	.	.
=158	=158	=158	=158	=158	=158	=158	=158	=158
4A	.	8f#L	.	8ff#L	.	4c#' 4f#	.	.
.	.	8g#	.	8gg#	.	.	.	.
4A	.	8a	.	8aa	.	4c#' 4f#	.	.
.	.	8f#J)	.	8ff#J)	.	.	.	.
4D#X	.	(8bL	.	4r	.	4B' 4f#	.	V6
.	.	8a#XJ	.	.	.	.	.	.
=159	=159	=159	=159	=159	=159	=159	=159	=159
4D#X	.	8bL	.	4r	.	4B' 4f#	.	.
.	.	8an	.	.	.	.	.	.
4D#	.	8g#	.	4r	.	4B' 4f#	.	.
.	.	8f#J)	.	.	.	.	.	.
4G#	.	(8enL	.	(8eenL	.	4B'	.	I6
.	.	8d#XJ	.	8dd#XJ	.	.	.	.
=160	=160	=160	=160	=160	=160	=160	=160	=160
4G#	.	8eL	.	8eeL	.	4B'	.	.
.	.	8f#	.	8ff#	.	.	.	.
4En	.	8g#	.	8gg#	.	4b'	.	I
.	.	8eJ)	.	8eeJ)	.	.	.	.
!LO:TX:b:i:t=cresc.	!	!LO:TX:b:i:t=cresc.	!	!LO:TX:b:i:t=cresc.	!	!LO:TX:b:i:t=cresc.	!	!
4AA#X	.	(8f#L	.	4c#'	.	(8ff#L	.	I.V6/ii
.	.	8e#XJ	.	.	.	8ee#XJ	.	.
=161	=161	=161	=161	=161	=161	=161	=161	=161
4A#X'	.	8f#L	.	4c#'	.	8ff#L	.	V65/ii
.	.	8en	.	.	.	8een	.	.
4A#'	.	8dn	.	4c#' 4f#	.	8ddn	.	.
.	.	8c#J)	.	.	.	8cc#J)	.	.
(8BL	.	4r	.	(8bL	.	4r	.	ii
8A#J	.	.	.	8a#XJ	.	.	.	.
=162	=162	=162	=162	=162	=162	=162	=162	=162
8BL	.	4r	.	8bL	.	4r	.	.
8c#	.	.	.	8cc#	.	.	.	.
8d	.	4r	.	8ddn	.	4r	.	.
8BJ)	.	.	.	8bJ)	.	.	.	.
4GG#'	.	(8eL	.	4B'	.	(8eeL	.	V6
.	.	8d#XJ	.	.	.	8dd#XJ	.	.
=163	=163	=163	=163	=163	=163	=163	=163	=163
4G#'	.	8eL	.	4B'	.	8eeL	.	.
.	.	8dn	.	.	.	8ddn	.	.
4G#'	.	8c#	.	4B' 4e	.	8cc#	.	.
.	.	8BJ)	.	.	.	8bJ)	.	.
(8AnL	.	4r	.	(8anL	.	4r	.	I
8G#J	.	.	.	8g#J	.	.	.	.
=164	=164	=164	=164	=164	=164	=164	=164	=164
8AL	.	4r	.	8aL	.	4r	.	.
8B	.	.	.	8b	.	.	.	.
!	!	!LO:TX:b:i:t=dol.	!	!	!	!	!	!
8c#	.	4r	.	8cc#	.	4r	.	.
8AJ)	.	.	.	8aJ)	.	.	.	.
4e'	p	(8EL	p	4g#' 4b	p	4b' 4bb	p	V.I
.	.	8G#J	.	.	.	.	.	.
=165	=165	=165	=165	=165	=165	=165	=165	=165
4e'	.	8BL	.	4g#' 4b	.	4b' 4bb	.	.
.	.	8e	.	.	.	.	.	.
4e'	.	8g#	.	4g#' 4b	.	4b' 4bb	.	.
.	.	8bJ)	.	.	.	.	.	.
4d#X'	.	(8aL	.	4f#' 4b	.	4b' 4bb	.	V65
.	.	8f#J	.	.	.	.	.	.
=166	=166	=166	=166	=166	=166	=166	=166	=166
4d#X'	.	8d#XL	.	4f#' 4b	.	4b' 4bb	.	.
.	.	8B	.	.	.	.	.	.
4d#'	.	8A	.	4f#' 4b	.	4b' 4bb	.	.
.	.	8F#J)	.	.	.	.	.	.
4e'	.	(8G#L	.	4g#' 4b	.	4b' 4bb	.	I
.	.	8BJ	.	.	.	.	.	.
=167	=167	=167	=167	=167	=167	=167	=167	=167
4e	.	8AL	.	4g# 4b	.	4b 4bb	.	.
.	.	8G#	.	.	.	.	.	.
4e	.	8F#	.	4g# 4b	.	4b 4bb	.	.
.	.	8EJ)	.	.	.	.	.	.
4B	.	(8g#L	.	4d#X 4b	.	4b 4bb	.	V
.	.	8f#J	.	.	.	.	.	.
=168	=168	=168	=168	=168	=168	=168	=168	=168
4B	.	8eL	.	4f# 4b	.	4b 4bb	.	.
.	.	8d#X	.	.	.	.	.	.
4B	.	8c#	.	4f# 4b	.	4b 4bb	.	.
.	.	8BJ)	.	.	.	.	.	.
4e	.	(8EL	.	4g# 4b	.	4b 4bb	.	I
.	.	8G#J	.	.	.	.	.	.
=169	=169	=169	=169	=169	=169	=169	=169	=169
4e	.	8BL	.	4g# 4b	.	4b 4bb	.	.
.	.	8e	.	.	.	.	.	.
4e	.	8g#	.	4g# 4b	.	4b 4bb	.	.
.	.	8bJ)	.	.	.	.	.	.
4d#X	.	(8aL	.	4f# 4b	.	4b 4bb	.	V65
.	.	8f#J	.	.	.	.	.	.
=170	=170	=170	=170	=170	=170	=170	=170	=170
4d#X	.	8d#XL	.	4f# 4b	.	4b 4bb	.	.
.	.	8B	.	.	.	.	.	.
4d#	.	8A	.	4f# 4b	.	4b 4bb	.	.
.	.	8F#J)	.	.	.	.	.	.
4e	.	(8G#L	.	4g# 4b	.	4b 4bb	.	I
.	.	8BJ	.	.	.	.	.	.
=171	=171	=171	=171	=171	=171	=171	=171	=171
4e	.	8AL	.	4g# 4b	.	4b 4bb	.	.
.	.	8G#	.	.	.	.	.	.
4e	.	8F#	.	4g# 4b	.	4b 4bb	.	.
.	.	8EJ)	.	.	.	.	.	.
4B	.	(8g#L	.	4d#X 4b	.	4b 4bb	.	V
.	.	8f#J	.	.	.	.	.	.
=172	=172	=172	=172	=172	=172	=172	=172	=172
4B	.	8eL	.	4f# 4b	.	4b 4bb	.	.
.	.	8d#X	.	.	.	.	.	.
4B	.	8c#	.	4f# 4b	.	4b 4bb	.	.
.	.	8BJ)	.	.	.	.	.	.
*clefC4	*	*	*	*	*	*	*	*
4e#X	.	(8cc#L	.	4g#	.	4gg#	.	V6/ii
.	.	8b#XJ	.	.	.	.	.	.
=173	=173	=173	=173	=173	=173	=173	=173	=173
4e#X	.	8cc#L	.	4g#	.	4gg#	.	.
.	.	8bn	.	.	.	.	.	.
4e#	.	8a	.	4g#	.	4gg#	.	.
.	.	8g#J)	.	.	.	.	.	.
4a	.	(8f#L	.	(8ff#L	.	4ccc#	.	ii
.	.	8e#XJ	.	8ee#XJ	.	.	.	.
=174	=174	=174	=174	=174	=174	=174	=174	=174
4a	.	8f#L	.	8ff#L	.	4ccc#	.	.
.	.	8g#	.	8gg#	.	.	.	.
4a	.	8a	.	8aa	.	4ccc#	.	.
.	.	8f#J)	.	8ff#J)	.	.	.	.
4d#X	.	(8bL	.	4r	.	4ff#	.	V6
.	.	8a#XJ	.	.	.	.	.	.
=175	=175	=175	=175	=175	=175	=175	=175	=175
4d#X	.	8bL	.	4r	.	4ff#	.	.
.	.	8an	.	.	.	.	.	.
4d#	.	8g#	.	4r	.	4ff#	.	.
.	.	8f#J)	.	.	.	.	.	.
4g#	.	(8enL	.	(8eenL	.	4bb	.	I
.	.	8d#XJ	.	8dd#XJ	.	.	.	.
=176	=176	=176	=176	=176	=176	=176	=176	=176
4g#	.	8eL	.	8eeL	.	4bb	.	.
.	.	8f#	.	8ff#	.	.	.	.
4g#	.	8g#	.	8gg#	.	4bb	.	.
.	.	8eJ)	.	8eeJ)	.	.	.	.
4f#	.	(8aL	.	4r	.	4b 4bb	.	V43
.	.	8g#J	.	.	.	.	.	.
=177	=177	=177	=177	=177	=177	=177	=177	=177
4f#	.	8aL	<	4r	.	4b 4bb	.	.
.	.	8b	.	.	.	.	.	.
4f#	.	8cc#	.	4a'	.	4b 4bb	.	.
.	.	8dd#X	[ >	.	.	.	.	.
4f#	.	8ee	.	4a'	.	4b 4bb	.	.
.	.	8dd#J	]]	.	.	.	.	.
=178	=178	=178	=178	=178	=178	=178	=178	=178
4g#	.	8eeL	.	4b'	.	4b 4bb	.	I6
.	.	8dd#X	.	.	.	.	.	.
*clefF4	*	*	*	*	*	*	*	*
4G#	.	8ee	.	4b'	.	4ee	.	.
.	.	8b	.	.	.	.	.	.
4A	.	8cc#	.	4c#' 4e	.	4ee	.	IV
.	.	8aJ)	.	.	.	.	.	.
=179	=179	=179	=179	=179	=179	=179	=179	=179
4B	.	(8g#L	.	4B' 4e	.	4ee	.	V(64)
.	.	8f##X	.	.	.	.	.	.
4B	.	8g#	.	4B' 4e	.	4ee	.	.
.	.	8b	.	.	.	.	.	.
4B	.	8a	.	4A' 4f#	.	4dd#X	.	V7
.	.	8f#XJ)	.	.	.	.	.	.
=180	=180	=180	=180	=180	=180	=180	=180	=180
4E	.	(8eL	.	4G#'	.	4ee	.	I\\
.	.	8d#X	.	.	.	.	.	.
!LO:TX:a:i:t=poco cresc.	!	!	!	!	!	!	!	!
!LO:TX:b:i:t=poco cresc.	!	!	!	!	!	!LO:TX:b:i:t=poco cresc.	!	!
4GG#	.	8e	.	4B'	.	(8eeL	.	I.V6
!	!	!LO:TX:a:i:t=poco cresc.	!	!	!	!	!	!
.	.	8e#XJ)	.	.	.	8ee#X	.	.
4AA#X	.	(8f#L	.	4c#'	.	8ff#	.	V65/ii
.	.	8e#J	.	.	.	8ee#J	.	.
=181	=181	=181	=181	=181	=181	=181	=181	=181
4A#X	.	8f#L	.	4cc#	.	8ff#L	.	.
.	.	8en	.	.	.	8een	.	.
4A#	.	8dn	.	4cc#	.	8ddn	.	.
.	.	8c#J)	.	.	.	8cc#J)	.	.
4r	.	4d'	.	4f#	.	(8bL	.	ii6
.	.	.	.	.	.	8a#XJ	.	.
=182	=182	=182	=182	=182	=182	=182	=182	=182
4r	.	4d'	.	4f#	.	8bL	.	.
.	.	.	.	.	.	8cc#	.	.
4r	.	4d'	.	4f#	.	8dd	.	.
.	.	.	.	.	.	8bJ)	.	.
4GG#	.	(8eL	.	4B	.	(8eeL	.	V6
.	.	8d#XJ	.	.	.	8dd#XJ	.	.
=183	=183	=183	=183	=183	=183	=183	=183	=183
4G#	.	8eL	.	4b	.	8eeL	.	.
.	.	8dn	.	.	.	8ddn	.	.
4G#	.	8c#	.	4b	.	8cc#	.	.
.	.	8BJ)	.	.	.	8bJ)	.	.
4r	.	4c#'	p	4e	p	(8anL	p	I6
.	.	.	.	.	.	8g#J	.	.
=184	=184	=184	=184	=184	=184	=184	=184	=184
4r	.	4c#'	.	4e 4ee	.	8aL	.	.
.	.	.	.	.	.	8b	.	.
4r	.	4c#'	.	4e 4ee	.	8cc#	.	.
.	.	.	.	.	.	8bJ)	.	.
4An'	p	4c#'	.	4a 4ee	.	(8aL	.	I
.	.	.	.	.	.	8cc#J	.	.
=185	=185	=185	=185	=185	=185	=185	=185	=185
4A'	.	4c#	.	4a 4ee	.	8eeL	.	.
.	.	.	.	.	.	8aa	.	.
4A'	.	4c#	.	4a 4ee	.	8ccc#	.	.
.	.	.	.	.	.	8eeeJ)	.	.
4E'	.	4B 4d	.	4g# 4ee	.	(8dddL	.	V7
.	.	.	.	.	.	8bbJ	.	.
=186	=186	=186	=186	=186	=186	=186	=186	=186
4E	.	4B 4d	.	4g# 4ee	.	8gg#L	.	.
.	.	.	.	.	.	8ee	.	.
4E	.	4B 4d	.	4g# 4ee	.	8dd	.	.
.	.	.	.	.	.	8bJ)	.	.
4AA	.	4E 4c#	.	4a 4ee	.	(8cc#L	.	I
.	.	.	.	.	.	8eeJ	.	.
=187	=187	=187	=187	=187	=187	=187	=187	=187
4AA	.	4E 4c#	.	4a 4ee	.	8ddL	.	.
.	.	.	.	.	.	8cc#	.	.
4AA	.	4E 4c#	.	4a 4ee	.	8b	.	.
.	.	.	.	.	.	8aJ)	.	.
4E	.	4E 4B	.	4g# 4ee	.	(8cc#L	.	V
.	.	.	.	.	.	8bJ	.	.
=188	=188	=188	=188	=188	=188	=188	=188	=188
4E	.	4E 4B	.	4g# 4ee	.	8aL	.	.
.	.	.	.	.	.	8g#	.	.
4E	.	4E 4B	.	4g# 4ee	.	8f#	.	.
.	.	.	.	.	.	8eJ)	.	.
4AA	.	4E 4c#	.	4a 4ee	.	(8aL	.	I
.	.	.	.	.	.	8cc#J	.	.
=189	=189	=189	=189	=189	=189	=189	=189	=189
4AA	.	4E 4c#	.	4a 4ee	.	8eeL	.	.
.	.	.	.	.	.	8aa	.	.
4AA	.	4E 4c#	.	4a 4ee	.	8ccc#	.	.
.	.	.	.	.	.	8eeeJ)	.	.
4EE	.	4B 4d	.	4g# 4ee	.	(8dddL	.	V7
.	.	.	.	.	.	8bbJ	.	.
=190	=190	=190	=190	=190	=190	=190	=190	=190
4EE	.	4B 4d	.	4g# 4ee	.	8gg#L	.	.
.	.	.	.	.	.	8ee	.	.
4EE	.	4B 4d	.	4g# 4ee	.	8dd	.	.
.	.	.	.	.	.	8bJ)	.	.
4AA	.	4E 4c#	.	4a 4ee	.	(8cc#L	.	I
.	.	.	.	.	.	8eeJ	.	.
=191	=191	=191	=191	=191	=191	=191	=191	=191
4AA	.	4E 4c#	.	4a 4ee	.	8ddL	.	.
.	.	.	.	.	.	8cc#	.	.
4AA	.	4E 4c#	.	4a 4ee	.	8b	.	.
.	.	.	.	.	.	8aJ)	.	.
4E	.	4E 4B	.	4g# 4ee	.	(8cc#L	.	V
.	.	.	.	.	.	8bJ	.	.
=192	=192	=192	=192	=192	=192	=192	=192	=192
4E	.	4E 4B	.	4g# 4ee	.	8aL	.	.
.	.	.	.	.	.	8g#	.	.
4E	.	4E 4B	.	4g# 4ee	.	8f#	.	.
.	.	.	.	.	.	8eJ)	.	.
(8f#L	.	(8AL	.	4r	.	4r	.	@none
8e#XJ	.	8G#J	.	.	.	.	.	.
=193	=193	=193	=193	=193	=193	=193	=193	=193
8f#L	.	8F#L	.	4r	.	4r	.	.
8enJ	.	8G#	.	.	.	.	.	.
8dL	.	8A	.	4r	.	4r	.	.
8c#J)	.	8A#XJ)	.	.	.	.	.	.
4r	.	(8dL	.	(8f#L	.	(8bbL	.	ii6
.	.	8c#J	.	8eJ	.	8aa#XJ	.	#viio6/ii
=194	=194	=194	=194	=194	=194	=194	=194	=194
2.r	.	8dL	.	8f#L	.	8bbL	.	ii6
.	.	8c#	.	8e	.	8ccc#	.	.
.	.	8B	.	8d	.	8ddd	.	ii
.	.	8dJ)	.	8f#J)	.	8bbJ)	.	ii6
.	.	(8g#L	.	(8eeL	.	4r	.	V6
.	.	8f#J	.	8dd#XJ	.	.	.	.
=195	=195	=195	=195	=195	=195	=195	=195	=195
4r	.	8eL	.	8eeL	.	4r	.	V
.	.	8f#	.	8ddn	.	.	.	.
4r	.	8gn	.	8cc#	.	4r	.	.
.	.	8g#XJ)	.	8bJ)	.	.	.	.
(8c#L	.	(8eL	.	(8eeL	.	(8aanL	.	I6
8BJ	.	8g#J	.	8ddJ	.	8gg#J	.	viio6
=196	=196	=196	=196	=196	=196	=196	=196	=196
8c#L	.	8eL	.	8eeL	.	8aaL	.	I6
8B	.	8g#	.	8dd	.	8bb	.	viio6
8A	.	8a	.	8cc#	.	8ccc#	.	I
8c#J)	.	8eJ)	.	8eeJ)	.	8aaJ)	.	I6
4r	.	4f#'	.	4a'	.	(8ddL	.	IV6
.	.	.	.	.	.	8cc#J	.	.
=197	=197	=197	=197	=197	=197	=197	=197	=197
!	!	!LO:TX:b:i:t=cresc.	!	!LO:TX:b:i:t=cresc.	!	!LO:TX:b:i:t=cresc.	!	!
2.r	.	4f#'	.	4a'	.	8ddL	.	.
.	.	.	.	.	.	8ee	.	.
.	.	4d'	.	4f#' 4a	.	8ff#	.	IV
.	.	.	.	.	.	8gg#	.	.
.	.	4d'	.	4f#' 4a	.	8aa	.	.
.	.	.	.	.	.	8gg#J	.	.
=198	=198	=198	=198	=198	=198	=198	=198	=198
2.r	.	4c#'	p	4e' 4a	p	8aaL	p	I6
.	.	.	.	.	.	8gg#	.	.
.	.	4c#'	.	4e' 4a	.	8aa	.	.
.	.	.	.	.	.	8ee	.	.
.	.	4d'	.	4f#' 4a	.	8ff#	.	IV
.	.	.	.	.	.	8ddJ	.	.
=199	=199	=199	=199	=199	=199	=199	=199	=199
2.r	.	4e'	.	4a'	.	8cc#L	.	V(64)
.	.	.	.	.	.	8b#X	.	.
.	.	4E	.	4A	.	8cc#	.	.
.	.	.	.	.	.	8ee	.	.
.	.	4E	.	4G#	.	8dd	.	V7
.	.	.	.	.	.	8bnJ)	.	.
=200	=200	=200	=200	=200	=200	=200	=200	=200
4r	.	4A	.	4c#	.	(8aL	.	I\\
.	.	.	.	.	.	8cc#	.	I
4r	.	4A	.	4c#	.	8dd	.	.
.	.	.	.	.	.	8eeJ	.	.
!LO:TX:b:i:t=cresc.	!	!LO:TX:b:i:t=cresc.	!	!LO:TX:b:i:t=cresc.	!	!LO:TX:b:i:t=cresc.	!	!
4AA#X'	.	4F#	.	4c# 4f#	.	8ff#L	.	V6/ii
.	.	.	.	.	.	8ee#XJ	.	.
=201	=201	=201	=201	=201	=201	=201	=201	=201
4AA#X'	.	4F#	.	4c# 4f#	.	8ff#L	.	.
.	.	.	.	.	.	8een	.	.
4AA#'	.	4F#	.	4c# 4f#	.	8dd	.	.
.	.	.	.	.	.	8cc#J)	.	.
4D'	.	4F#	.	4f#	.	(8bL	.	ii6
.	.	.	.	.	.	8a#XJ	.	.
=202	=202	=202	=202	=202	=202	=202	=202	=202
4D	.	4F#	.	4f#	.	8bL	.	.
.	.	.	.	.	.	8cc#	.	.
4D	.	4F#	.	4f#	.	8dd	.	.
.	.	.	.	.	.	8bJ)	.	.
4GG#	.	4B	.	4e	.	(8eeL	.	V6
.	.	.	.	.	.	8dd#XJ	.	.
=203	=203	=203	=203	=203	=203	=203	=203	=203
4GG#	.	4E	.	4B 4e	.	8eeL	.	.
.	.	.	.	.	.	8ddn	.	.
4GG#	.	4E	.	4B 4e	.	8cc#	.	.
.	.	.	.	.	.	8bJ)	.	.
4C#	.	4E	.	4e	.	(8anL	.	I
.	.	.	.	.	.	8g#J	.	.
=204	=204	=204	=204	=204	=204	=204	=204	=204
4C#	.	4E	.	4e	.	8aL	.	I6
.	.	.	.	.	.	8b	.	.
4C#	.	4E	.	4e	.	8cc#	.	.
.	.	.	.	.	.	8aJ)	.	.
4F#	.	4A	.	4d	.	(8ddL	.	IV6
.	.	.	.	.	.	8cc#J	.	.
=205	=205	=205	=205	=205	=205	=205	=205	=205
4F#	.	4A	.	4d	.	8ddL	.	.
.	.	.	.	.	.	8ee	.	.
4F#	.	4A	.	4d	.	8ff#	.	.
.	.	.	.	.	.	8gg#J	.	.
4D	.	4A	.	4f#	.	8aaL	.	IV
.	.	.	.	.	.	8gg#J)	.	.
=206	=206	=206	=206	=206	=206	=206	=206	=206
4C#	.	4A	.	4e	.	(8aaL	.	I6
.	.	.	.	.	.	8gg#	.	.
4C#	.	4A	.	4e	.	8aa	.	.
.	.	.	.	.	.	8eeJ	.	.
4D	.	4A	.	4f#	.	8ff#L	.	IV
.	.	.	.	.	.	8ddJ	.	.
=207	=207	=207	=207	=207	=207	=207	=207	=207
4E	.	4A	.	4e	.	8cc#L	.	V(64)
.	.	.	.	.	.	8b#X	.	.
4E	.	4A	.	4e	.	8cc#	.	.
.	.	.	.	.	.	8eeJ	.	.
4E	.	4G#	.	4e	.	8ddL	.	V7
.	.	.	.	.	.	8bnJ	.	.
=208	=208	=208	=208	=208	=208	=208	=208	=208
4A	.	4c#	.	4e	.	8aL)	.	I\\
.	.	.	.	.	.	(8aa	.	I
4A	.	4c# 4a	.	4e	.	8bb	.	.
.	.	.	.	.	.	8ccc#	.	.
4F#	f	4d	f	4a	f	8ddd	f	IV6
.	.	.	.	.	.	8ccc#J	.	.
=209	=209	=209	=209	=209	=209	=209	=209	=209
4F#	.	4d	.	4a	.	8dddL	.	.
.	.	.	.	.	.	8eee	.	.
4D	.	4A	.	4a	.	8fff#	.	IV
.	.	.	.	.	.	8ggg#	.	.
4D	p	4A	p	4f# 4a	p	8aaa')	.	.
.	.	.	.	.	.	(8gg#J	p	.
=210	=210	=210	=210	=210	=210	=210	=210	=210
4C#	.	4A	.	4e 4a	.	8aaL	.	I6
.	.	.	.	.	.	8gg#	.	.
4C#	.	4A	.	4e 4a	.	8aa	.	.
.	.	.	.	.	.	8ee	.	.
4D	.	4A	.	4f# 4a	.	8ff#	.	IV
.	.	.	.	.	.	8ddJ)	.	.
=211	=211	=211	=211	=211	=211	=211	=211	=211
4E	.	4A	.	4e 4a	.	(8cc#L	.	V(64)
.	.	.	.	.	.	8b#X	.	.
4E	.	4A	.	4e	.	8cc#	.	.
.	.	.	.	.	.	8eeJ	.	.
4EE	.	4G#	.	4e	.	8ddL	.	V7
.	.	.	.	.	.	8bnJ)	.	.
=212	=212	=212	=212	=212	=212	=212	=212	=212
4AA	.	4A	.	4c# 4e	.	(8aL	.	I\\
.	.	.	.	.	.	8cc#	.	.
4CC#'	f	4C#'	f	4r	.	8ee	f	I6
.	.	.	.	.	.	8aaJ	.	.
4CC#'	.	4C#'	.	4r	.	4ccc#')	.	.
=213	=213	=213	=213	=213	=213	=213	=213	=213
2.CC#	sf	2.C#	sf	2.r	.	2.r	.	.
=214	=214	=214	=214	=214	=214	=214	=214	=214
2.DD#X	sf	2.D#X	sf	2.r	.	2.r	.	@none
=215	=215	=215	=215	=215	=215	=215	=215	=215
4AA'	.	4A'	.	2.r	.	2.r	.	.
4GG#'	.	4G#'	.	.	.	.	.	.
4FF#'	.	4F#'	.	.	.	.	.	.
=216	=216	=216	=216	=216	=216	=216	=216	=216
4GG#'	.	4G#'	.	2.r	.	2.r	.	iii.V
4GG#'	.	4G#'	.	.	.	.	.	.
4GG#'	.	4G#'	.	.	.	.	.	.
=217	=217	=217	=217	=217	=217	=217	=217	=217
2.BB#X'	sf	2.B#X'	sf	2.r	.	2.r	.	.
=218	=218	=218	=218	=218	=218	=218	=218	=218
2.C#'	sf	2.c#'	sf	2.r	.	2.r	.	i
=219	=219	=219	=219	=219	=219	=219	=219	=219
4AA'	.	4A'	.	2.r	.	4r	.	iv
4FF#'	.	4F#'	.	.	.	4r	.	.
4GG#'	.	4G#'	.	.	.	(8c#L	f	i64
.	.	.	.	.	.	8eJ	.	.
=220	=220	=220	=220	=220	=220	=220	=220	=220
4CC#'	.	4C#'	.	4r	.	8g#L	.	i
.	.	.	.	.	.	8cc#	.	.
4CC#'	.	4C#'	.	4c#'	f	8ee	.	.
.	.	.	.	.	.	8gg#J	.	.
4CC#'	.	4C#'	.	4c#'	.	8ccc#L	.	.
.	.	.	.	.	.	8eeeJ)	.	.
=221	=221	=221	=221	=221	=221	=221	=221	=221
2.CC#'	sf	2.C#'	sf	2.c#'	sf	4ggg#'	.	.
.	.	.	.	.	.	4cccc#'	.	.
.	.	.	.	.	.	4r	.	.
=222	=222	=222	=222	=222	=222	=222	=222	=222
2.DD#X'	sf	2.D#X'	sf	2.d#X'	sf	2.r	.	@none
=223	=223	=223	=223	=223	=223	=223	=223	=223
4AA'	.	4A'	.	4a'	.	2.r	.	iv
4GG#'	.	4G#'	.	4g#'	.	.	.	.
4FF#'	.	4F#'	.	4f#'	.	.	.	.
=224	=224	=224	=224	=224	=224	=224	=224	=224
4GG#'	.	4G#'	.	4g#'	.	2.r	.	V
4GG#'	.	4G#'	.	4g#'	.	.	.	.
4GG#'	.	4G#'	.	4g#'	.	.	.	.
=225||	=225||	=225||	=225||	=225||	=225||	=225||	=225||	=225||
*M2/2	*	*M2/2	*	*M2/2	*	*M2/2	*	*
*met(c|)	*	*met(c|)	*	*met(c|)	*	*met(c|)	*	*
!	!	!	!	!	!	!LO:TX:a:t=L'istesso tempo	!	!
2BB#X'	.	2B#X'	.	2b#X'	.	1r	.	.
2BBB#X'	.	2BB#X'	.	2B#X'	.	.	.	.
=226	=226	=226	=226	=226	=226	=226	=226	=226
2CC#'	.	2C#'	.	2c#'	.	1r	.	i
2C#'	.	2c#'	.	2cc#'	.	.	.	.
=227	=227	=227	=227	=227	=227	=227	=227	=227
4AA'	.	4A'	.	4a'	.	1r	.	V
4FF#'	.	4F#'	.	4f#'	.	.	.	.
4GG#'	.	4G#'	.	4g#'	.	.	.	.
4GG#'	.	4G#'	.	4G#'	.	.	.	.
=228	=228	=228	=228	=228	=228	=228	=228	=228
4C#	.	4C#	.	4c#	.	2r	.	i
4c#	.	4c#	.	4cc#	.	.	.	.
[2AA	p	[2A	p	4A	p	4r	.	I.I[I
!	!	!	!	!	!	!LO:TX:a:t=p  dol.	!	!
!	!	!	!	!	!	!LO:TX:a:t=L'istesso tempo	!	!
.	.	.	.	(8aL	.	(4ccc#	.	.
.	.	.	.	8cc#J	.	.	.	.
=229||	=229||	=229||	=229||	=229||	=229||	=229||	=229||	=229||
*M3/4	*	*M3/4	*	*M3/4	*	*M3/4	*	*
*	*	*	*	*	*	*^	*	*
2.AA_	.	2A]	.	8eeL	.	4r)	2.a	p	.
.	.	.	.	8aa	.	.	.	.	.
.	.	.	.	8ccc#	.	4r	.	.	.
.	.	.	.	8eeeJ)	.	.	.	.	.
.	.	(8AL	.	(8eeL	.	(4eee	.	.	.
.	.	8c#J	.	8aaJ	.	.	.	.	.
=230	=230	=230	=230	=230	=230	=230	=230	=230	=230
2AA]	.	8eL	.	8eeL	.	4r)	2.a	.	.
.	.	8a	.	8ccc#	.	.	.	.	.
.	.	8cc#	.	8ee	.	4r	.	.	.
.	.	8eeJ)	.	8ccc#J)	.	.	.	.	.
(8AAL	.	(8C#L	.	(8eeL	.	(4aaa	.	.	.
8C#J	.	8EJ	.	8aaJ	.	.	.	.	.
=231	=231	=231	=231	=231	=231	=231	=231	=231	=231
!LO:TX:a:i:t=cresc.	!	!LO:TX:a:i:t=cresc.	!	!LO:TX:a:i:t=cresc.	!	!LO:TX:b:i:t=cresc.	!	!	!
8EL	.	8AL	.	8eeL	.	4r)	[2.a	.	.
8A	.	8c#	.	8ccc#	.	.	.	.	.
8c#	.	8e	.	8ee	.	4r	.	.	.
8eJ)	.	8c#J)	.	8aaJ)	.	.	.	.	.
[4AA	.	(8c#L	.	(8cc#L	.	(4eee	.	.	.
.	.	8AJ	.	8aaJ	.	.	.	.	.
=232	=232	=232	=232	=232	=232	=232	=232	=232	=232
2.AA_	.	8dL	.	8ddL	.	4fff#	2.a_	.	IV
.	.	8A	.	8aa	.	.	.	.	.
.	.	8c#	.	8cc#	.	4eee	.	.	I6
.	.	8A	.	8aa	.	.	.	.	.
.	.	8B	.	8b	.	4ddd	.	.	ii
.	.	8AJ)	.	8aaJ)	.	.	.	.	.
=233	=233	=233	=233	=233	=233	=233	=233	=233	=233
2.AA_	.	(8c#L	.	(8cc#L	.	2eee)	2.a_	.	V
.	.	8A	.	8aa	.	.	.	.	.
.	.	8B	.	8b	.	.	.	.	.
.	.	8AJ)	.	8aa	.	.	.	.	.
.	.	(8AL	.	8a	.	(4ccc#	.	.	I
.	.	8aJ)	.	8aaJ)	.	.	.	.	.
=234	=234	=234	=234	=234	=234	=234	=234	=234	=234
2.AA_	.	(8BL	.	(8bL	.	4ddd	2.a_	.	ii
.	.	8a	.	8aa	.	.	.	.	.
.	.	8A	.	8a	.	4ccc#	.	.	I
.	.	8aJ	.	8aa	.	.	.	.	.
.	.	8BL	.	8b	.	4ddd	.	.	ii
.	.	8AJ)	.	8aaJ	.	.	.	.	.
=235	=235	=235	=235	=235	=235	=235	=235	=235	=235
2.AA_	.	(8BL	.	8bL	.	8ccc#L	2.a_	.	.
.	.	8A	.	8aa	.	8dddJ	.	.	.
.	.	8c#	.	8a	.	4eee)	.	.	I6
.	.	8A	.	8aa	.	.	.	.	.
.	.	8d	.	8dd	.	(4eee	.	.	.
.	.	8c#J)	.	8cc#J)	.	.	.	.	.
=236	=236	=236	=236	=236	=236	=236	=236	=236	=236
2.AA_	.	(8dL	.	(8ddL	.	4fff#	2.a_	.	IV
.	.	8A	.	8aa	.	.	.	.	.
.	.	8c#	.	8cc#	.	4eee	.	.	I6
.	.	8A	.	8aa	.	.	.	.	.
.	.	8B	.	8b	.	4ddd	.	.	ii
.	.	8AJ)	.	8aaJ)	.	.	.	.	.
=237	=237	=237	=237	=237	=237	=237	=237	=237	=237
2.AA_	.	(8c#L	.	(8cc#L	.	2eee)	2.a_	.	I6
.	.	8A	.	8aa	.	.	.	.	.
.	.	8B	.	8b	.	.	.	.	.
.	.	8A	.	8aa	.	.	.	.	.
.	.	8A	.	8a	.	(4ccc#	.	.	.
.	.	8aJ)	.	8aaJ)	.	.	.	.	.
=238	=238	=238	=238	=238	=238	=238	=238	=238	=238
2.AA_	.	(8BL	.	(8bL	.	4ddd	2.a_	.	ii
.	.	8AJ)	.	8aa	.	.	.	.	.
.	.	(8AL	.	8a	.	4ccc#	.	.	I
.	.	8a)	.	8aaJ)	.	.	.	.	.
.	.	(8f#	.	(8ff#L	.	8dddL	.	.	IV
.	.	8dJ	.	8ddJ	.	8fff#J	.	.	.
=239	=239	=239	=239	=239	=239	=239	=239	=239	=239
2.AA_	.	8eL	.	8eeL	.	2ccc#)	2.a_	.	I64
.	.	8a	.	8aa	.	.	.	.	.
.	.	8cc#	.	8ccc#	.	.	.	.	.
.	.	8eeJ)	.	8eeeJ)	.	.	.	.	.
.	.	(8AL	.	(8aL	.	(4ccc#	.	.	.
.	.	8aJ	.	8aaJ	.	.	.	.	.
=240	=240	=240	=240	=240	=240	=240	=240	=240	=240
2.AA_	.	8BL	.	8bL	.	4ddd	2.a_	.	ii
.	.	8AJ	.	8aa	.	.	.	.	.
.	.	8AL	.	8a	.	4ccc#	.	.	I
.	.	8a)	.	8aaJ)	.	.	.	.	.
.	.	(8f#	.	(8ff#L	.	8dddL	.	.	IV
.	.	8dJ	.	8ddJ	.	8fff#J)	.	.	.
=241	=241	=241	=241	=241	=241	=241	=241	=241	=241
!LO:TX:b:i:t=dim.	!	!	!	!	!	!	!	!	!
2.AA_	.	8c#L	>	8cc#L	>	2aaa	2.a_	.	I6
.	.	8e	.	8ee	.	.	.	.	.
.	.	8a	.	8aa	.	.	.	.	.
.	.	8cc#J)	.	8ccc#J)	.	.	.	.	.
!	!	!LO:TX:b:i:t=dim.	!	!LO:TX:b:i:t=dim.	!	!LO:TX:b:i:t=dim.	!	!	!
.	.	(8AL	]	(8aL	]	(4ccc#	.	.	I
.	.	8aJ	.	8aaJ	.	.	.	.	.
=242	=242	=242	=242	=242	=242	=242	=242	=242	=242
2.AA_	.	8BL	.	8bL	.	4ddd	2.a_	.	ii
.	.	8a	.	8aa	.	.	.	.	.
.	.	8A	.	8a	.	4ccc#	.	.	I
.	.	8a)	.	8aaJ)	.	.	.	.	.
.	.	(8f#	.	(8ff#L	.	8dddL	.	.	IV
.	.	8dJ	.	8ddJ	.	8fff#J	.	.	.
=243	=243	=243	=243	=243	=243	=243	=243	=243	=243
!LO:TX:a:i:t=piu p	!	!	!	!	!	!	!	!	!
(2.AA]	p	8eL	p	8eeL	p	2ccc#)	2.a]	p	I64
.	.	8a	.	8aa	.	.	.	.	.
.	.	8cc#	.	8ccc#	.	.	.	.	.
.	.	8eeJ)	.	8eeeJ)	.	.	.	.	.
!	!	!LO:TX:b:i:t=piu p	!	!	!	!	!	!	!
.	.	((4c# 4e	.	(8AL	.	(4ccc#	.	.	I6
.	.	.	.	8c#J	.	.	.	.	.
=244	=244	=244	=244	=244	=244	=244	=244	=244	=244
!	!	!	!	!LO:TX:b:i:t=piu p	!	!LO:TX:b:i:t=piu p	!	!	!
2AA)	.	2c#)) 2e	.	8eL	.	2ccc#)	2.a	.	.
.	.	.	.	8a	.	.	.	.	.
.	.	.	.	8cc#	.	.	.	.	.
.	.	.	.	8eeJ)	.	.	.	.	.
(8AAL	pp	((4c# 4e	pp	((4cc# 4ee	pp	(4ccc#	.	pp	.
8C#J	.	.	.	.	.	.	.	.	.
=245	=245	=245	=245	=245	=245	=245	=245	=245	=245
8EL	.	2.c#)) 2.e	pp	2.cc#)) 2.ee	pp	2.ccc#)	2.a	pp	I\\
8AJ	.	.	.	.	.	.	.	.	.
8c#L	.	.	.	.	.	.	.	.	.
8eJ)	.	.	.	.	.	.	.	.	.
4AA	.	.	.	.	.	.	.	.	.
*	*	*	*	*	*	*v	*v	*	*
=246	=246	=246	=246	=246	=246	=246	=246	=246
!	!	!	!	!	!	!LO:TX:a:t=D.C. al Fine	!	!
2.r	.	2.r	.	2.r	.	2.r	.	.
==	==	==	==	==	==	==	==	==
*-	*-	*-	*-	*-	*-	*-	*-	*-
!!!system-decoration: [(s1,s2,s3,s4)]
